(G-CODE GENERATED BY FLATCAM v8.994 - www.flatcam.org - Version Date: 2020/11/7)

(Name: drill_1_16.xln_cnc)
(Type: G-code from Geometry)
(Units: MM)

(Created on Tuesday, 07 December 2021 at 15:24)

(This preprocessor is the default preprocessor used by FlatCAM.)
(It is made to work with MACH3 compatible motion controllers.)


(TOOLS DIAMETER: )
(Tool: 1 -> Dia: 0.813)
(Tool: 2 -> Dia: 0.914)

(FEEDRATE Z: )
(Tool: 1 -> Feedrate: 300)
(Tool: 2 -> Feedrate: 300)

(FEEDRATE RAPIDS: )
(Tool: 1 -> Feedrate Rapids: 1500)
(Tool: 2 -> Feedrate Rapids: 1500)

(Z_CUT: )
(Tool: 1 -> Z_Cut: -0.05)
(Tool: 2 -> Z_Cut: -0.05)

(Tools Offset: )
(Tool: 1 -> Offset Z: 0.0)
(Tool: 2 -> Offset Z: 0.0)

(Z_MOVE: )
(Tool: 1 -> Z_Move: 2)
(Tool: 2 -> Z_Move: 2)

(Z Toolchange: 15 mm)
(X,Y Toolchange: 0.0000, 0.0000 mm)
(Z Start: None mm)
(Z End: 0.5 mm)
(X,Y End: None mm)
(Steps per circle: 64)
(Preprocessor Excellon: default)

(X range:    0.2542 ...   45.5677  mm)
(Y range:    1.1685 ...   33.7315  mm)

(Spindle Speed: 0 RPM)
G21
G90
G94

G01 F300.00

M5
G00 Z15.0000
T1
G00 X0.0000 Y0.0000                
M6
(MSG, Change to Tool Dia = 0.8130 ||| Total drills for tool T1 = 26)
M0
G00 Z15.0000

G01 F300.00
M03
G00 X43.8407 Y6.6550
G01 Z-0.0500
G01 Z0
G00 Z2.0000
G00 X43.8407 Y4.1150
G01 Z-0.0500
G01 Z0
G00 Z2.0000
G00 X28.6007 Y9.1950
G01 Z-0.0500
G01 Z0
G00 Z2.0000
G00 X20.9807 Y9.1950
G01 Z-0.0500
G01 Z0
G00 Z2.0000
G00 X9.5507 Y13.0050
G01 Z-0.0500
G01 Z0
G00 Z2.0000
G00 X9.5507 Y7.9250
G01 Z-0.0500
G01 Z0
G00 Z2.0000
G00 X3.2007 Y1.5750
G01 Z-0.0500
G01 Z0
G00 Z2.0000
G00 X0.6607 Y1.5750
G01 Z-0.0500
G01 Z0
G00 Z2.0000
G00 X4.4707 Y13.0050
G01 Z-0.0500
G01 Z0
G00 Z2.0000
G00 X4.4707 Y18.0850
G01 Z-0.0500
G01 Z0
G00 Z2.0000
G00 X1.9307 Y33.3250
G01 Z-0.0500
G01 Z0
G00 Z2.0000
G00 X4.4707 Y33.3250
G01 Z-0.0500
G01 Z0
G00 Z2.0000
G00 X9.5507 Y18.0850
G01 Z-0.0500
G01 Z0
G00 Z2.0000
G00 X12.0907 Y18.0850
G01 Z-0.0500
G01 Z0
G00 Z2.0000
G00 X20.9807 Y16.8150
G01 Z-0.0500
G01 Z0
G00 Z2.0000
G00 X20.9807 Y14.2750
G01 Z-0.0500
G01 Z0
G00 Z2.0000
G00 X20.9807 Y11.7350
G01 Z-0.0500
G01 Z0
G00 Z2.0000
G00 X28.6007 Y11.7350
G01 Z-0.0500
G01 Z0
G00 Z2.0000
G00 X28.6007 Y14.2750
G01 Z-0.0500
G01 Z0
G00 Z2.0000
G00 X28.6007 Y16.8150
G01 Z-0.0500
G01 Z0
G00 Z2.0000
G00 X36.2207 Y18.0850
G01 Z-0.0500
G01 Z0
G00 Z2.0000
G00 X32.4107 Y28.2450
G01 Z-0.0500
G01 Z0
G00 Z2.0000
G00 X37.4907 Y28.2450
G01 Z-0.0500
G01 Z0
G00 Z2.0000
G00 X42.5707 Y25.7050
G01 Z-0.0500
G01 Z0
G00 Z2.0000
G00 X45.1107 Y25.7050
G01 Z-0.0500
G01 Z0
G00 Z2.0000
G00 X41.3007 Y18.0850
G01 Z-0.0500
G01 Z0
G00 Z2.0000
M05
G00 Z0.50


