(G-CODE GENERATED BY FLATCAM v8.994 - www.flatcam.org - Version Date: 2020/11/7)

(Name: copper_top.gbr_iso_combined_cnc)
(Type: G-code from Geometry)
(Units: MM)

(Created on Thursday, 09 December 2021 at 14:59)

(This preprocessor is the default preprocessor used by FlatCAM.)
(It is made to work with MACH3 compatible motion controllers.)

(TOOL DIAMETER: 0.1 mm)
(Feedrate_XY: 120.0 mm/min)
(Feedrate_Z: 60.0 mm/min)
(Feedrate rapids 1500.0 mm/min)

(Z_Cut: 0.0 mm)
(Z_Move: 2.0 mm)
(Z Start: None mm)
(Z End: 15.0 mm)
(X,Y End: None mm)
(Steps per circle: 64)
(Preprocessor Geometry: default)

(X range:   -0.0500 ...   66.5477  mm)
(Y range:   -0.0500 ...   35.9661  mm)

(Spindle Speed: 0.0 RPM)
G21
G90
G94

G01 F120.00

M5
G00 Z15.0000
G00 X0.0000 Y0.0000
T1
M6    
(MSG, Change to Tool Dia = 0.1000)
M0
G00 Z15.0000

M03
G01 F120.00
G00 X2.5576 Y22.5321
G01 F60.00
G01 Z0.0000
G01 F120.00
G01 X2.6189 Y22.5779
G01 X2.6725 Y22.6265
G01 X2.7210 Y22.6800
G01 X2.7672 Y22.7419
G01 X2.8044 Y22.8038
G01 X2.8076 Y22.8100
G01 X6.5040 Y22.8100
G01 X6.5375 Y22.8117
G01 X6.5696 Y22.8164
G01 X6.6081 Y22.8261
G01 X6.6386 Y22.8370
G01 X6.6701 Y22.8519
G01 X6.7000 Y22.8698
G01 X6.7260 Y22.8891
G01 X6.7537 Y22.9140
G01 X17.7243 Y33.8846
G01 X18.1412 Y33.8846
G01 X21.4918 Y30.5340
G01 X21.5176 Y30.5106
G01 X21.5456 Y30.4898
G01 X21.5754 Y30.4719
G01 X21.6081 Y30.4566
G01 X21.6397 Y30.4453
G01 X21.6735 Y30.4368
G01 X21.7080 Y30.4317
G01 X21.7428 Y30.4300
G01 X26.4678 Y30.4300
G01 X26.4678 Y26.4157
G01 X26.1611 Y26.4157
G01 X26.0927 Y26.4123
G01 X26.0225 Y26.4018
G01 X25.9537 Y26.3843
G01 X25.8904 Y26.3616
G01 X25.8295 Y26.3329
G01 X25.7675 Y26.2959
G01 X25.7105 Y26.2536
G01 X25.6598 Y26.2075
G01 X25.6146 Y26.1577
G01 X25.5714 Y26.0998
G01 X25.5344 Y26.0378
G01 X25.5057 Y25.9769
G01 X25.4830 Y25.9136
G01 X25.4653 Y25.8436
G01 X25.4549 Y25.7722
G01 X25.4516 Y25.7050
G01 X25.4549 Y25.6377
G01 X25.4653 Y25.5663
G01 X25.4830 Y25.4963
G01 X25.5057 Y25.4330
G01 X25.5355 Y25.3699
G01 X25.5728 Y25.3081
G01 X25.6130 Y25.2541
G01 X25.6581 Y25.2042
G01 X25.7115 Y25.1556
G01 X25.7696 Y25.1127
G01 X25.8273 Y25.0781
G01 X25.8881 Y25.0493
G01 X25.9572 Y25.0245
G01 X26.0237 Y25.0079
G01 X26.0903 Y24.9979
G01 X26.1611 Y24.9942
G01 X27.4856 Y24.9943
G01 X27.5528 Y24.9976
G01 X27.6218 Y25.0079
G01 X27.6895 Y25.0248
G01 X27.7551 Y25.0483
G01 X27.8182 Y25.0781
G01 X27.8780 Y25.1140
G01 X27.9340 Y25.1556
G01 X27.9874 Y25.2042
G01 X28.0326 Y25.2541
G01 X28.0741 Y25.3101
G01 X28.1100 Y25.3699
G01 X28.1407 Y25.4353
G01 X28.1633 Y25.4986
G01 X28.1806 Y25.5687
G01 X28.1906 Y25.6377
G01 X28.1939 Y25.7050
G01 X28.1906 Y25.7722
G01 X28.1802 Y25.8436
G01 X28.1633 Y25.9113
G01 X28.1398 Y25.9769
G01 X28.1088 Y26.0421
G01 X28.0741 Y26.0998
G01 X28.0341 Y26.1539
G01 X27.9874 Y26.2057
G01 X27.9340 Y26.2544
G01 X27.8770 Y26.2966
G01 X27.8182 Y26.3318
G01 X27.7551 Y26.3616
G01 X27.6895 Y26.3851
G01 X27.6206 Y26.4023
G01 X27.5528 Y26.4123
G01 X27.4844 Y26.4157
G01 X27.1777 Y26.4157
G01 X27.1777 Y30.6379
G01 X30.7798 Y34.2400
G01 X52.7820 Y34.2400
G01 X52.7820 Y33.9333
G01 X52.7854 Y33.8649
G01 X52.7959 Y33.7947
G01 X52.8126 Y33.7282
G01 X52.8371 Y33.6603
G01 X52.8659 Y33.5995
G01 X52.9005 Y33.5418
G01 X52.9426 Y33.4846
G01 X52.9902 Y33.4320
G01 X53.0438 Y33.3836
G01 X53.0979 Y33.3436
G01 X53.1556 Y33.3090
G01 X53.2208 Y33.2779
G01 X53.2864 Y33.2544
G01 X53.3565 Y33.2371
G01 X53.4255 Y33.2271
G01 X53.4928 Y33.2238
G01 X53.5600 Y33.2271
G01 X53.6338 Y33.2380
G01 X53.6991 Y33.2544
G01 X53.7647 Y33.2779
G01 X53.8278 Y33.3077
G01 X53.8855 Y33.3423
G01 X53.9436 Y33.3852
G01 X53.9970 Y33.4338
G01 X54.0422 Y33.4837
G01 X54.0837 Y33.5397
G01 X54.1207 Y33.6017
G01 X54.1494 Y33.6626
G01 X54.1729 Y33.7282
G01 X54.1898 Y33.7959
G01 X54.1998 Y33.8625
G01 X54.2035 Y33.9346
G01 X54.2035 Y35.2554
G01 X54.2001 Y35.3250
G01 X54.1893 Y35.3964
G01 X54.1729 Y35.4617
G01 X54.1494 Y35.5273
G01 X54.1196 Y35.5904
G01 X54.0850 Y35.6481
G01 X54.0406 Y35.7081
G01 X53.9953 Y35.7579
G01 X53.9436 Y35.8048
G01 X53.8876 Y35.8463
G01 X53.8278 Y35.8822
G01 X53.7647 Y35.9120
G01 X53.7014 Y35.9347
G01 X53.6290 Y35.9528
G01 X53.5624 Y35.9627
G01 X53.4915 Y35.9661
G01 X53.4207 Y35.9624
G01 X53.3541 Y35.9524
G01 X53.2888 Y35.9361
G01 X53.2208 Y35.9120
G01 X53.1577 Y35.8822
G01 X53.0979 Y35.8463
G01 X53.0400 Y35.8032
G01 X52.9902 Y35.7579
G01 X52.9450 Y35.7081
G01 X52.9025 Y35.6512
G01 X52.8659 Y35.5904
G01 X52.8361 Y35.5273
G01 X52.8126 Y35.4617
G01 X52.7955 Y35.3928
G01 X52.7854 Y35.3250
G01 X52.7820 Y35.2566
G01 X52.7820 Y34.9499
G01 X30.6328 Y34.9499
G01 X30.5980 Y34.9482
G01 X30.5659 Y34.9435
G01 X30.5274 Y34.9339
G01 X30.4969 Y34.9229
G01 X30.4654 Y34.9080
G01 X30.4356 Y34.8901
G01 X30.4095 Y34.8708
G01 X30.3818 Y34.8459
G01 X26.6757 Y31.1399
G01 X21.8898 Y31.1399
G01 X18.6432 Y34.3865
G01 X18.6432 Y34.8685
G01 X18.6422 Y34.8783
G01 X18.6410 Y34.8830
G01 X18.6389 Y34.8888
G01 X18.6340 Y34.8973
G01 X18.6285 Y34.9039
G01 X18.2417 Y35.2907
G01 X18.2341 Y35.2969
G01 X18.2254 Y35.3015
G01 X18.2173 Y35.3041
G01 X18.2075 Y35.3053
G01 X17.6592 Y35.3054
G01 X17.6543 Y35.3051
G01 X17.6483 Y35.3041
G01 X17.6412 Y35.3020
G01 X17.6356 Y35.2994
G01 X17.6294 Y35.2955
G01 X17.6239 Y35.2907
G01 X17.2370 Y34.9039
G01 X17.2315 Y34.8973
G01 X17.2272 Y34.8899
G01 X17.2253 Y34.8853
G01 X17.2236 Y34.8795
G01 X17.2227 Y34.8746
G01 X17.2224 Y34.8685
G01 X17.2224 Y34.3865
G01 X6.3557 Y23.5199
G01 X2.8076 Y23.5199
G01 X2.8044 Y23.5261
G01 X2.7672 Y23.5881
G01 X2.7226 Y23.6481
G01 X2.6725 Y23.7035
G01 X2.6151 Y23.7552
G01 X2.5571 Y23.7982
G01 X2.4951 Y23.8354
G01 X2.4276 Y23.8675
G01 X2.3550 Y23.8937
G01 X2.2825 Y23.9119
G01 X2.2086 Y23.9228
G01 X2.1340 Y23.9265
G01 X0.7103 Y23.9265
G01 X0.6369 Y23.9228
G01 X0.5630 Y23.9119
G01 X0.4905 Y23.8937
G01 X0.4224 Y23.8694
G01 X0.3504 Y23.8354
G01 X0.2885 Y23.7982
G01 X0.2284 Y23.7536
G01 X0.1731 Y23.7035
G01 X0.1229 Y23.6481
G01 X0.0783 Y23.5881
G01 X0.0411 Y23.5261
G01 X0.0071 Y23.4541
G01 X-0.0172 Y23.3860
G01 X-0.0354 Y23.3135
G01 X-0.0463 Y23.2396
G01 X-0.0499 Y23.1674
G01 X-0.0460 Y23.0879
G01 X-0.0354 Y23.0164
G01 X-0.0172 Y22.9439
G01 X0.0080 Y22.8735
G01 X0.0388 Y22.8081
G01 X0.0798 Y22.7398
G01 X0.1229 Y22.6818
G01 X0.1731 Y22.6265
G01 X0.2304 Y22.5748
G01 X0.2885 Y22.5317
G01 X0.3526 Y22.4933
G01 X0.4201 Y22.4614
G01 X0.4905 Y22.4362
G01 X0.5630 Y22.4180
G01 X0.6381 Y22.4070
G01 X0.7116 Y22.4034
G01 X1.6823 Y22.4034
G01 X7.4178 Y16.6679
G01 X7.4178 Y11.7350
G01 X7.4198 Y11.6977
G01 X7.4246 Y11.6657
G01 X7.4324 Y11.6343
G01 X7.4448 Y11.5991
G01 X7.4603 Y11.5666
G01 X7.4776 Y11.5378
G01 X7.4969 Y11.5117
G01 X7.5218 Y11.4840
G01 X13.8718 Y5.1340
G01 X13.8976 Y5.1106
G01 X13.9256 Y5.0898
G01 X13.9554 Y5.0719
G01 X13.9881 Y5.0566
G01 X14.0197 Y5.0453
G01 X14.0535 Y5.0368
G01 X14.0880 Y5.0317
G01 X14.1228 Y5.0300
G01 X48.4128 Y5.0300
G01 X48.4475 Y5.0317
G01 X48.4844 Y5.0374
G01 X48.5158 Y5.0453
G01 X48.5463 Y5.0561
G01 X48.5801 Y5.0719
G01 X48.6120 Y5.0912
G01 X48.6379 Y5.1106
G01 X48.6620 Y5.1323
G01 X48.6871 Y5.1598
G01 X48.7092 Y5.1898
G01 X48.7258 Y5.2176
G01 X48.7397 Y5.2469
G01 X48.7524 Y5.2819
G01 X48.7613 Y5.3181
G01 X48.7660 Y5.3502
G01 X48.7676 Y5.3825
G01 X48.7660 Y5.4197
G01 X48.7604 Y5.4566
G01 X48.7524 Y5.4880
G01 X48.7416 Y5.5185
G01 X48.7258 Y5.5523
G01 X48.7065 Y5.5842
G01 X48.6871 Y5.6101
G01 X48.6646 Y5.6351
G01 X35.9629 Y18.3368
G01 X35.9379 Y18.3593
G01 X35.9100 Y18.3801
G01 X35.8801 Y18.3980
G01 X35.8486 Y18.4129
G01 X35.8158 Y18.4246
G01 X35.7820 Y18.4331
G01 X35.7475 Y18.4382
G01 X35.7182 Y18.4397
G01 X35.6941 Y18.4798
G01 X35.6533 Y18.5349
G01 X35.6048 Y18.5884
G01 X35.5540 Y18.6344
G01 X35.5000 Y18.6745
G01 X35.4382 Y18.7118
G01 X35.3751 Y18.7416
G01 X35.3071 Y18.7657
G01 X35.2418 Y18.7820
G01 X35.1753 Y18.7920
G01 X35.1044 Y18.7957
G01 X33.7824 Y18.7957
G01 X33.7151 Y18.7924
G01 X33.6437 Y18.7820
G01 X33.5760 Y18.7651
G01 X33.5104 Y18.7416
G01 X33.4473 Y18.7118
G01 X33.3875 Y18.6759
G01 X33.3315 Y18.6344
G01 X33.2798 Y18.5875
G01 X33.2330 Y18.5358
G01 X33.1914 Y18.4798
G01 X33.1555 Y18.4200
G01 X33.1257 Y18.3569
G01 X33.1022 Y18.2913
G01 X33.0853 Y18.2236
G01 X33.0750 Y18.1546
G01 X33.0716 Y18.0850
G01 X33.0750 Y18.0153
G01 X33.0853 Y17.9463
G01 X33.1022 Y17.8786
G01 X33.1257 Y17.8130
G01 X33.1555 Y17.7499
G01 X33.1928 Y17.6881
G01 X33.2330 Y17.6341
G01 X33.2781 Y17.5842
G01 X33.3315 Y17.5356
G01 X33.3896 Y17.4927
G01 X33.4473 Y17.4581
G01 X33.5081 Y17.4293
G01 X33.5760 Y17.4048
G01 X33.6461 Y17.3875
G01 X33.7127 Y17.3776
G01 X33.7799 Y17.3743
G01 X35.1032 Y17.3742
G01 X35.1753 Y17.3779
G01 X35.2418 Y17.3879
G01 X35.3095 Y17.4048
G01 X35.3751 Y17.4283
G01 X35.4382 Y17.4581
G01 X35.4980 Y17.4940
G01 X35.5540 Y17.5356
G01 X35.6057 Y17.5824
G01 X35.6510 Y17.6322
G01 X35.6565 Y17.6393
G01 X47.5558 Y5.7399
G01 X14.2698 Y5.7399
G01 X8.1277 Y11.8820
G01 X8.1277 Y16.8150
G01 X8.1260 Y16.8497
G01 X8.1204 Y16.8866
G01 X8.1124 Y16.9180
G01 X8.1016 Y16.9485
G01 X8.0858 Y16.9823
G01 X8.0679 Y17.0122
G01 X8.0486 Y17.0382
G01 X8.0237 Y17.0659
G01 X2.5576 Y22.5321
G00 Z2.0000
G00 X25.5474 Y23.5199
G01 F60.00
G01 Z0.0000
G01 F120.00
G01 X18.5825 Y23.5199
G01 X18.2877 Y23.8147
G01 X18.2877 Y28.8652
G01 X18.6285 Y29.2061
G01 X18.6347 Y29.2136
G01 X18.6378 Y29.2189
G01 X18.6398 Y29.2234
G01 X18.6424 Y29.2329
G01 X18.6432 Y29.2414
G01 X18.6432 Y29.7885
G01 X18.6429 Y29.7934
G01 X18.6419 Y29.7995
G01 X18.6398 Y29.8065
G01 X18.6373 Y29.8121
G01 X18.6340 Y29.8173
G01 X18.6294 Y29.8230
G01 X18.2417 Y30.2107
G01 X18.2341 Y30.2169
G01 X18.2254 Y30.2215
G01 X18.2173 Y30.2241
G01 X18.2075 Y30.2253
G01 X17.6592 Y30.2254
G01 X17.6495 Y30.2244
G01 X17.6401 Y30.2215
G01 X17.6314 Y30.2169
G01 X17.6239 Y30.2107
G01 X17.2370 Y29.8239
G01 X17.2322 Y29.8183
G01 X17.2277 Y29.8110
G01 X17.2249 Y29.8042
G01 X17.2229 Y29.7958
G01 X17.2224 Y29.7885
G01 X17.2224 Y29.2414
G01 X17.2231 Y29.2329
G01 X17.2253 Y29.2246
G01 X17.2272 Y29.2200
G01 X17.2301 Y29.2147
G01 X17.2337 Y29.2097
G01 X17.2370 Y29.2061
G01 X17.5778 Y28.8652
G01 X17.5778 Y23.8147
G01 X17.2370 Y23.4739
G01 X17.2308 Y23.4663
G01 X17.2277 Y23.4610
G01 X17.2257 Y23.4565
G01 X17.2231 Y23.4470
G01 X17.2224 Y23.4385
G01 X17.2224 Y22.8890
G01 X17.2236 Y22.8805
G01 X17.2262 Y22.8723
G01 X17.2308 Y22.8636
G01 X17.2361 Y22.8569
G01 X17.6239 Y22.4692
G01 X17.6294 Y22.4644
G01 X17.6356 Y22.4605
G01 X17.6435 Y22.4571
G01 X17.6519 Y22.4551
G01 X17.6592 Y22.4546
G01 X18.2063 Y22.4546
G01 X18.2148 Y22.4553
G01 X18.2231 Y22.4575
G01 X18.2288 Y22.4599
G01 X18.2331 Y22.4623
G01 X18.2380 Y22.4659
G01 X18.2417 Y22.4692
G01 X18.5825 Y22.8100
G01 X25.5474 Y22.8100
G01 X25.5714 Y22.7701
G01 X25.6114 Y22.7160
G01 X25.6589 Y22.6633
G01 X25.7115 Y22.6156
G01 X25.7665 Y22.5747
G01 X25.8273 Y22.5381
G01 X25.8904 Y22.5083
G01 X25.9560 Y22.4848
G01 X26.0249 Y22.4677
G01 X26.0927 Y22.4576
G01 X26.1624 Y22.4542
G01 X27.4832 Y22.4542
G01 X27.5504 Y22.4575
G01 X27.6242 Y22.4684
G01 X27.6895 Y22.4848
G01 X27.7551 Y22.5083
G01 X27.8182 Y22.5381
G01 X27.8759 Y22.5727
G01 X27.9359 Y22.6172
G01 X27.9857 Y22.6624
G01 X28.0326 Y22.7141
G01 X28.0741 Y22.7701
G01 X28.1088 Y22.8278
G01 X28.1407 Y22.8953
G01 X28.1633 Y22.9586
G01 X28.1802 Y23.0263
G01 X28.1905 Y23.0953
G01 X28.1939 Y23.1650
G01 X28.1905 Y23.2346
G01 X28.1802 Y23.3036
G01 X28.1633 Y23.3713
G01 X28.1398 Y23.4369
G01 X28.1100 Y23.5000
G01 X28.0741 Y23.5598
G01 X28.0326 Y23.6158
G01 X27.9857 Y23.6675
G01 X27.9340 Y23.7144
G01 X27.8780 Y23.7559
G01 X27.8182 Y23.7918
G01 X27.7551 Y23.8216
G01 X27.6895 Y23.8451
G01 X27.6218 Y23.8620
G01 X27.5528 Y23.8723
G01 X27.4832 Y23.8757
G01 X26.1624 Y23.8757
G01 X26.0927 Y23.8723
G01 X26.0249 Y23.8623
G01 X25.9560 Y23.8451
G01 X25.8904 Y23.8216
G01 X25.8273 Y23.7918
G01 X25.7665 Y23.7552
G01 X25.7115 Y23.7144
G01 X25.6589 Y23.6666
G01 X25.6114 Y23.6139
G01 X25.5714 Y23.5598
G01 X25.5474 Y23.5199
G00 Z2.0000
G00 X25.7458 Y20.0500
G01 F60.00
G01 Z0.0000
G01 F120.00
G01 X24.1357 Y18.4399
G01 X18.5825 Y18.4399
G01 X18.2417 Y18.7807
G01 X18.2341 Y18.7869
G01 X18.2299 Y18.7894
G01 X18.2243 Y18.7920
G01 X18.2148 Y18.7946
G01 X18.2063 Y18.7954
G01 X17.6592 Y18.7954
G01 X17.6495 Y18.7944
G01 X17.6401 Y18.7915
G01 X17.6314 Y18.7869
G01 X17.6247 Y18.7816
G01 X17.2370 Y18.3939
G01 X17.2329 Y18.3893
G01 X17.2289 Y18.3831
G01 X17.2257 Y18.3765
G01 X17.2239 Y18.3706
G01 X17.2227 Y18.3646
G01 X17.2224 Y18.3585
G01 X17.2224 Y17.8114
G01 X17.2231 Y17.8029
G01 X17.2253 Y17.7946
G01 X17.2272 Y17.7900
G01 X17.2301 Y17.7847
G01 X17.2337 Y17.7797
G01 X17.2370 Y17.7761
G01 X17.5778 Y17.4352
G01 X17.5778 Y7.3047
G01 X17.2370 Y6.9639
G01 X17.2308 Y6.9563
G01 X17.2277 Y6.9510
G01 X17.2257 Y6.9465
G01 X17.2231 Y6.9370
G01 X17.2224 Y6.9285
G01 X17.2224 Y6.3802
G01 X17.2233 Y6.3717
G01 X17.2262 Y6.3623
G01 X17.2308 Y6.3536
G01 X17.2361 Y6.3469
G01 X17.6239 Y5.9592
G01 X17.6294 Y5.9544
G01 X17.6346 Y5.9510
G01 X17.6401 Y5.9484
G01 X17.6459 Y5.9464
G01 X17.6519 Y5.9451
G01 X17.6592 Y5.9446
G01 X18.2063 Y5.9446
G01 X18.2161 Y5.9455
G01 X18.2254 Y5.9484
G01 X18.2341 Y5.9530
G01 X18.2417 Y5.9592
G01 X18.6294 Y6.3469
G01 X18.6347 Y6.3536
G01 X18.6389 Y6.3611
G01 X18.6417 Y6.3693
G01 X18.6430 Y6.3777
G01 X18.6432 Y6.9285
G01 X18.6424 Y6.9370
G01 X18.6398 Y6.9465
G01 X18.6354 Y6.9552
G01 X18.6318 Y6.9602
G01 X18.6285 Y6.9639
G01 X18.2877 Y7.3047
G01 X18.2877 Y17.4352
G01 X18.5825 Y17.7300
G01 X24.2828 Y17.7300
G01 X24.3175 Y17.7317
G01 X24.3496 Y17.7364
G01 X24.3870 Y17.7457
G01 X24.4208 Y17.7580
G01 X24.4501 Y17.7719
G01 X24.4779 Y17.7885
G01 X24.5079 Y17.8106
G01 X24.5329 Y17.8331
G01 X26.6140 Y19.9142
G01 X27.4844 Y19.9142
G01 X27.5528 Y19.9176
G01 X27.6242 Y19.9284
G01 X27.6895 Y19.9448
G01 X27.7551 Y19.9683
G01 X27.8182 Y19.9981
G01 X27.8790 Y20.0347
G01 X27.9340 Y20.0756
G01 X27.9866 Y20.1233
G01 X28.0341 Y20.1760
G01 X28.0741 Y20.2301
G01 X28.0981 Y20.2700
G01 X31.9028 Y20.2700
G01 X31.9375 Y20.2717
G01 X31.9744 Y20.2774
G01 X32.0058 Y20.2853
G01 X32.0363 Y20.2961
G01 X32.0690 Y20.3113
G01 X32.1020 Y20.3312
G01 X32.1279 Y20.3506
G01 X32.1537 Y20.3740
G01 X34.2340 Y22.4542
G01 X35.1032 Y22.4542
G01 X35.1740 Y22.4578
G01 X35.2418 Y22.4679
G01 X35.3071 Y22.4842
G01 X35.3751 Y22.5083
G01 X35.4403 Y22.5394
G01 X35.4980 Y22.5740
G01 X35.5540 Y22.6156
G01 X35.6074 Y22.6642
G01 X35.6526 Y22.7141
G01 X35.6941 Y22.7701
G01 X35.7300 Y22.8299
G01 X35.7588 Y22.8907
G01 X35.7833 Y22.9586
G01 X35.8006 Y23.0287
G01 X35.8105 Y23.0953
G01 X35.8139 Y23.1650
G01 X35.8105 Y23.2346
G01 X35.8006 Y23.3012
G01 X35.7829 Y23.3724
G01 X35.7588 Y23.4392
G01 X35.7300 Y23.5000
G01 X35.6954 Y23.5577
G01 X35.6526 Y23.6158
G01 X35.6039 Y23.6692
G01 X35.5540 Y23.7144
G01 X35.5000 Y23.7545
G01 X35.4382 Y23.7918
G01 X35.3729 Y23.8225
G01 X35.3095 Y23.8451
G01 X35.2430 Y23.8618
G01 X35.1728 Y23.8723
G01 X35.1032 Y23.8757
G01 X33.7824 Y23.8757
G01 X33.7127 Y23.8723
G01 X33.6461 Y23.8624
G01 X33.5749 Y23.8447
G01 X33.5104 Y23.8216
G01 X33.4495 Y23.7929
G01 X33.3875 Y23.7559
G01 X33.3296 Y23.7128
G01 X33.2798 Y23.6675
G01 X33.2346 Y23.6177
G01 X33.1914 Y23.5598
G01 X33.1544 Y23.4978
G01 X33.1257 Y23.4369
G01 X33.1030 Y23.3736
G01 X33.0851 Y23.3024
G01 X33.0750 Y23.2346
G01 X33.0717 Y23.1674
G01 X33.0750 Y23.0953
G01 X33.0858 Y23.0239
G01 X33.1022 Y22.9586
G01 X33.1253 Y22.8941
G01 X33.1568 Y22.8278
G01 X33.1914 Y22.7701
G01 X33.2322 Y22.7150
G01 X33.2807 Y22.6615
G01 X33.3315 Y22.6156
G01 X33.3658 Y22.5900
G01 X31.7557 Y20.9799
G01 X28.0981 Y20.9799
G01 X28.0741 Y21.0198
G01 X28.0341 Y21.0739
G01 X27.9866 Y21.1266
G01 X27.9340 Y21.1744
G01 X27.8790 Y21.2152
G01 X27.8182 Y21.2518
G01 X27.7551 Y21.2816
G01 X27.6895 Y21.3051
G01 X27.6206 Y21.3223
G01 X27.5528 Y21.3323
G01 X27.4832 Y21.3357
G01 X26.1624 Y21.3357
G01 X26.0927 Y21.3323
G01 X26.0261 Y21.3224
G01 X25.9537 Y21.3043
G01 X25.8904 Y21.2816
G01 X25.8273 Y21.2518
G01 X25.7655 Y21.2145
G01 X25.7115 Y21.1744
G01 X25.6598 Y21.1275
G01 X25.6130 Y21.0758
G01 X25.5728 Y21.0218
G01 X25.5355 Y20.9600
G01 X25.5048 Y20.8946
G01 X25.4822 Y20.8313
G01 X25.4655 Y20.7648
G01 X25.4549 Y20.6922
G01 X25.4516 Y20.6250
G01 X25.4550 Y20.5553
G01 X25.4658 Y20.4839
G01 X25.4822 Y20.4186
G01 X25.5053 Y20.3541
G01 X25.5368 Y20.2878
G01 X25.5714 Y20.2301
G01 X25.6122 Y20.1750
G01 X25.6607 Y20.1215
G01 X25.7115 Y20.0756
G01 X25.7458 Y20.0500
G00 Z2.0000
G00 X35.7181 Y20.2700
G01 F60.00
G01 Z0.0000
G01 F120.00
G01 X55.3831 Y20.2700
G01 X55.6778 Y19.9752
G01 X55.6778 Y18.7347
G01 X55.3370 Y18.3939
G01 X55.3337 Y18.3902
G01 X55.3301 Y18.3852
G01 X55.3277 Y18.3810
G01 X55.3253 Y18.3753
G01 X55.3231 Y18.3670
G01 X55.3224 Y18.3585
G01 X55.3224 Y17.8114
G01 X55.3229 Y17.8041
G01 X55.3242 Y17.7981
G01 X55.3262 Y17.7923
G01 X55.3289 Y17.7868
G01 X55.3329 Y17.7806
G01 X55.3370 Y17.7761
G01 X55.7239 Y17.3892
G01 X55.7314 Y17.3830
G01 X55.7401 Y17.3784
G01 X55.7495 Y17.3755
G01 X55.7592 Y17.3746
G01 X56.3075 Y17.3746
G01 X56.3173 Y17.3758
G01 X56.3266 Y17.3788
G01 X56.3341 Y17.3830
G01 X56.3417 Y17.3892
G01 X56.7294 Y17.7769
G01 X56.7347 Y17.7836
G01 X56.7384 Y17.7900
G01 X56.7413 Y17.7981
G01 X56.7428 Y17.8053
G01 X56.7432 Y17.8114
G01 X56.7432 Y18.3585
G01 X56.7422 Y18.3683
G01 X56.7398 Y18.3765
G01 X56.7354 Y18.3852
G01 X56.7326 Y18.3893
G01 X56.7285 Y18.3939
G01 X56.3877 Y18.7347
G01 X56.3877 Y19.9752
G01 X56.7285 Y20.3161
G01 X56.7347 Y20.3236
G01 X56.7378 Y20.3289
G01 X56.7398 Y20.3334
G01 X56.7422 Y20.3417
G01 X56.7432 Y20.3514
G01 X56.7432 Y20.8985
G01 X56.7428 Y20.9046
G01 X56.7410 Y20.9130
G01 X56.7378 Y20.9210
G01 X56.7340 Y20.9273
G01 X56.7285 Y20.9339
G01 X56.3408 Y21.3216
G01 X56.3341 Y21.3269
G01 X56.3277 Y21.3306
G01 X56.3196 Y21.3335
G01 X56.3124 Y21.3350
G01 X56.3063 Y21.3354
G01 X55.7592 Y21.3354
G01 X55.7507 Y21.3346
G01 X55.7412 Y21.3320
G01 X55.7367 Y21.3300
G01 X55.7314 Y21.3269
G01 X55.7239 Y21.3207
G01 X55.3831 Y20.9799
G01 X35.7181 Y20.9799
G01 X35.6941 Y21.0198
G01 X35.6541 Y21.0739
G01 X35.6066 Y21.1266
G01 X35.5540 Y21.1744
G01 X35.4990 Y21.2152
G01 X35.4382 Y21.2518
G01 X35.3751 Y21.2816
G01 X35.3095 Y21.3051
G01 X35.2406 Y21.3223
G01 X35.1728 Y21.3323
G01 X35.1032 Y21.3357
G01 X33.7811 Y21.3357
G01 X33.7127 Y21.3323
G01 X33.6437 Y21.3220
G01 X33.5760 Y21.3051
G01 X33.5127 Y21.2825
G01 X33.4452 Y21.2506
G01 X33.3875 Y21.2159
G01 X33.3315 Y21.1744
G01 X33.2798 Y21.1275
G01 X33.2330 Y21.0758
G01 X33.1914 Y21.0198
G01 X33.1568 Y20.9621
G01 X33.1248 Y20.8946
G01 X33.1022 Y20.8313
G01 X33.0853 Y20.7636
G01 X33.0750 Y20.6946
G01 X33.0716 Y20.6250
G01 X33.0750 Y20.5553
G01 X33.0853 Y20.4863
G01 X33.1022 Y20.4186
G01 X33.1257 Y20.3530
G01 X33.1555 Y20.2899
G01 X33.1914 Y20.2301
G01 X33.2330 Y20.1741
G01 X33.2798 Y20.1224
G01 X33.3315 Y20.0756
G01 X33.3875 Y20.0340
G01 X33.4473 Y19.9981
G01 X33.5104 Y19.9683
G01 X33.5760 Y19.9448
G01 X33.6437 Y19.9279
G01 X33.7127 Y19.9176
G01 X33.7824 Y19.9142
G01 X35.1032 Y19.9142
G01 X35.1728 Y19.9176
G01 X35.2406 Y19.9277
G01 X35.3095 Y19.9448
G01 X35.3751 Y19.9683
G01 X35.4382 Y19.9981
G01 X35.4990 Y20.0347
G01 X35.5540 Y20.0756
G01 X35.6066 Y20.1233
G01 X35.6541 Y20.1760
G01 X35.6941 Y20.2301
G01 X35.7181 Y20.2700
G00 Z2.0000
G00 X35.7181 Y25.3500
G01 F60.00
G01 Z0.0000
G01 F120.00
G01 X50.8057 Y25.3500
G01 X53.2426 Y22.9131
G01 X53.2676 Y22.8906
G01 X53.2935 Y22.8712
G01 X53.3254 Y22.8519
G01 X53.3569 Y22.8370
G01 X53.3874 Y22.8261
G01 X53.4235 Y22.8168
G01 X53.4580 Y22.8117
G01 X53.4928 Y22.8100
G01 X63.5057 Y22.8100
G01 X65.8378 Y20.4779
G01 X65.8378 Y4.2620
G01 X62.2357 Y0.6599
G01 X57.4498 Y0.6599
G01 X54.2035 Y3.9062
G01 X54.2034 Y4.7778
G01 X54.2001 Y4.8450
G01 X54.1898 Y4.9140
G01 X54.1729 Y4.9817
G01 X54.1494 Y5.0473
G01 X54.1184 Y5.1125
G01 X54.0837 Y5.1702
G01 X54.0422 Y5.2262
G01 X53.9935 Y5.2796
G01 X53.9436 Y5.3248
G01 X53.8896 Y5.3649
G01 X53.8278 Y5.4022
G01 X53.7625 Y5.4329
G01 X53.6991 Y5.4555
G01 X53.6338 Y5.4719
G01 X53.5612 Y5.4828
G01 X53.4903 Y5.4860
G01 X53.4231 Y5.4827
G01 X53.3565 Y5.4728
G01 X53.2864 Y5.4555
G01 X53.2208 Y5.4320
G01 X53.1556 Y5.4010
G01 X53.0979 Y5.3663
G01 X53.0438 Y5.3263
G01 X52.9902 Y5.2779
G01 X52.9426 Y5.2253
G01 X52.9018 Y5.1702
G01 X52.8648 Y5.1082
G01 X52.8361 Y5.0473
G01 X52.8134 Y4.9840
G01 X52.7959 Y4.9152
G01 X52.7854 Y4.8450
G01 X52.7820 Y4.7766
G01 X52.7820 Y4.4699
G01 X33.8225 Y4.4699
G01 X33.4817 Y4.8107
G01 X33.4741 Y4.8169
G01 X33.4688 Y4.8200
G01 X33.4643 Y4.8220
G01 X33.4561 Y4.8244
G01 X33.4463 Y4.8254
G01 X32.8992 Y4.8254
G01 X32.8895 Y4.8244
G01 X32.8812 Y4.8220
G01 X32.8725 Y4.8176
G01 X32.8647 Y4.8116
G01 X32.5231 Y4.4699
G01 X18.5825 Y4.4699
G01 X18.2417 Y4.8107
G01 X18.2341 Y4.8169
G01 X18.2299 Y4.8194
G01 X18.2243 Y4.8220
G01 X18.2161 Y4.8244
G01 X18.2063 Y4.8254
G01 X17.6592 Y4.8254
G01 X17.6495 Y4.8244
G01 X17.6412 Y4.8220
G01 X17.6325 Y4.8176
G01 X17.6247 Y4.8116
G01 X17.2831 Y4.4699
G01 X11.7298 Y4.4699
G01 X1.7777 Y14.4220
G01 X1.7777 Y19.8634
G01 X2.1352 Y19.8634
G01 X2.2086 Y19.8671
G01 X2.2813 Y19.8778
G01 X2.3550 Y19.8962
G01 X2.4254 Y19.9214
G01 X2.4930 Y19.9533
G01 X2.5560 Y19.9911
G01 X2.6171 Y20.0363
G01 X2.6741 Y20.0882
G01 X2.7226 Y20.1418
G01 X2.7658 Y20.1998
G01 X2.8044 Y20.2638
G01 X2.8375 Y20.3335
G01 X2.8627 Y20.4039
G01 X2.8809 Y20.4764
G01 X2.8919 Y20.5515
G01 X2.8955 Y20.6250
G01 X2.8918 Y20.6996
G01 X2.8809 Y20.7735
G01 X2.8627 Y20.8460
G01 X2.8375 Y20.9164
G01 X2.8056 Y20.9839
G01 X2.7672 Y21.0481
G01 X2.7242 Y21.1061
G01 X2.6725 Y21.1635
G01 X2.6189 Y21.2120
G01 X2.5550 Y21.2595
G01 X2.4930 Y21.2966
G01 X2.4254 Y21.3285
G01 X2.3550 Y21.3537
G01 X2.2813 Y21.3721
G01 X2.2086 Y21.3828
G01 X2.1340 Y21.3865
G01 X0.7116 Y21.3865
G01 X0.6345 Y21.3825
G01 X0.5630 Y21.3719
G01 X0.4929 Y21.3544
G01 X0.4179 Y21.3275
G01 X0.3526 Y21.2966
G01 X0.2905 Y21.2595
G01 X0.2284 Y21.2136
G01 X0.1714 Y21.1617
G01 X0.1229 Y21.1081
G01 X0.0798 Y21.0501
G01 X0.0399 Y20.9839
G01 X0.0080 Y20.9164
G01 X-0.0164 Y20.8484
G01 X-0.0356 Y20.7723
G01 X-0.0463 Y20.6996
G01 X-0.0499 Y20.6274
G01 X-0.0463 Y20.5503
G01 X-0.0348 Y20.4740
G01 X-0.0172 Y20.4039
G01 X0.0071 Y20.3358
G01 X0.0399 Y20.2660
G01 X0.0798 Y20.1998
G01 X0.1229 Y20.1418
G01 X0.1714 Y20.0882
G01 X0.2284 Y20.0363
G01 X0.2885 Y19.9917
G01 X0.3548 Y19.9522
G01 X0.4201 Y19.9214
G01 X0.4882 Y19.8970
G01 X0.5630 Y19.8780
G01 X0.6369 Y19.8671
G01 X0.7103 Y19.8634
G01 X1.0678 Y19.8634
G01 X1.0678 Y14.2750
G01 X1.0695 Y14.2402
G01 X1.0742 Y14.2081
G01 X1.0835 Y14.1707
G01 X1.0958 Y14.1369
G01 X1.1097 Y14.1076
G01 X1.1263 Y14.0798
G01 X1.1484 Y14.0498
G01 X1.1718 Y14.0240
G01 X11.3318 Y3.8640
G01 X11.3595 Y3.8391
G01 X11.3856 Y3.8198
G01 X11.4154 Y3.8019
G01 X11.4469 Y3.7870
G01 X11.4774 Y3.7761
G01 X11.5159 Y3.7664
G01 X11.5480 Y3.7617
G01 X11.5828 Y3.7600
G01 X17.2831 Y3.7600
G01 X17.6247 Y3.4183
G01 X17.6325 Y3.4123
G01 X17.6401 Y3.4084
G01 X17.6495 Y3.4055
G01 X17.6592 Y3.4046
G01 X18.2063 Y3.4046
G01 X18.2148 Y3.4053
G01 X18.2243 Y3.4079
G01 X18.2331 Y3.4123
G01 X18.2371 Y3.4151
G01 X18.2417 Y3.4192
G01 X18.5825 Y3.7600
G01 X32.5231 Y3.7600
G01 X32.8639 Y3.4192
G01 X32.8714 Y3.4130
G01 X32.8767 Y3.4099
G01 X32.8812 Y3.4079
G01 X32.8895 Y3.4055
G01 X32.8992 Y3.4046
G01 X33.4463 Y3.4046
G01 X33.4561 Y3.4055
G01 X33.4643 Y3.4079
G01 X33.4731 Y3.4123
G01 X33.4808 Y3.4183
G01 X33.8225 Y3.7600
G01 X52.7820 Y3.7600
G01 X52.7820 Y3.4546
G01 X52.7853 Y3.3873
G01 X52.7957 Y3.3159
G01 X52.8126 Y3.2482
G01 X52.8371 Y3.1803
G01 X52.8659 Y3.1195
G01 X52.9018 Y3.0597
G01 X52.9450 Y3.0018
G01 X52.9902 Y2.9520
G01 X53.0409 Y2.9059
G01 X53.0979 Y2.8636
G01 X53.1577 Y2.8277
G01 X53.2208 Y2.7979
G01 X53.2864 Y2.7744
G01 X53.3541 Y2.7575
G01 X53.4231 Y2.7472
G01 X53.4928 Y2.7438
G01 X53.5636 Y2.7474
G01 X53.6314 Y2.7575
G01 X53.6991 Y2.7744
G01 X53.7647 Y2.7979
G01 X53.8289 Y2.8283
G01 X53.8876 Y2.8636
G01 X53.9446 Y2.9059
G01 X53.9962 Y2.9529
G01 X54.0422 Y3.0037
G01 X54.0677 Y3.0380
G01 X57.0518 Y0.0540
G01 X57.0776 Y0.0306
G01 X57.1056 Y0.0098
G01 X57.1354 Y-0.0081
G01 X57.1681 Y-0.0234
G01 X57.1997 Y-0.0347
G01 X57.2335 Y-0.0432
G01 X57.2680 Y-0.0483
G01 X57.3028 Y-0.0500
G01 X62.3828 Y-0.0500
G01 X62.4175 Y-0.0483
G01 X62.4520 Y-0.0432
G01 X62.4858 Y-0.0347
G01 X62.5186 Y-0.0230
G01 X62.5501 Y-0.0081
G01 X62.5800 Y0.0098
G01 X62.6079 Y0.0306
G01 X62.6329 Y0.0531
G01 X66.4437 Y3.8640
G01 X66.4671 Y3.8898
G01 X66.4872 Y3.9167
G01 X66.5069 Y3.9498
G01 X66.5207 Y3.9791
G01 X66.5324 Y4.0119
G01 X66.5409 Y4.0457
G01 X66.5457 Y4.0777
G01 X66.5477 Y4.1150
G01 X66.5477 Y20.6250
G01 X66.5459 Y20.6610
G01 X66.5409 Y20.6942
G01 X66.5324 Y20.7280
G01 X66.5207 Y20.7608
G01 X66.5069 Y20.7901
G01 X66.4865 Y20.8242
G01 X66.4671 Y20.8501
G01 X66.4446 Y20.8751
G01 X63.9037 Y23.4159
G01 X63.8779 Y23.4393
G01 X63.8510 Y23.4594
G01 X63.8179 Y23.4791
G01 X63.7886 Y23.4929
G01 X63.7558 Y23.5046
G01 X63.7220 Y23.5131
G01 X63.6900 Y23.5179
G01 X63.6528 Y23.5199
G01 X53.6398 Y23.5199
G01 X51.2029 Y25.9568
G01 X51.1779 Y25.9793
G01 X51.1500 Y26.0001
G01 X51.1201 Y26.0180
G01 X51.0908 Y26.0319
G01 X51.0534 Y26.0453
G01 X51.0220 Y26.0531
G01 X50.9863 Y26.0583
G01 X50.9528 Y26.0599
G01 X35.7181 Y26.0599
G01 X35.6941 Y26.0998
G01 X35.6541 Y26.1539
G01 X35.6066 Y26.2066
G01 X35.5540 Y26.2544
G01 X35.4990 Y26.2952
G01 X35.4382 Y26.3318
G01 X35.3751 Y26.3616
G01 X35.3095 Y26.3851
G01 X35.2406 Y26.4023
G01 X35.1728 Y26.4123
G01 X35.1032 Y26.4157
G01 X33.7824 Y26.4157
G01 X33.7127 Y26.4123
G01 X33.6461 Y26.4024
G01 X33.5737 Y26.3843
G01 X33.5104 Y26.3616
G01 X33.4473 Y26.3318
G01 X33.3875 Y26.2959
G01 X33.3315 Y26.2544
G01 X33.2798 Y26.2075
G01 X33.2330 Y26.1558
G01 X33.1914 Y26.0998
G01 X33.1568 Y26.0421
G01 X33.1248 Y25.9746
G01 X33.1022 Y25.9113
G01 X33.0853 Y25.8436
G01 X33.0750 Y25.7746
G01 X33.0716 Y25.7050
G01 X33.0750 Y25.6353
G01 X33.0853 Y25.5663
G01 X33.1022 Y25.4986
G01 X33.1257 Y25.4330
G01 X33.1555 Y25.3699
G01 X33.1914 Y25.3101
G01 X33.2330 Y25.2541
G01 X33.2798 Y25.2024
G01 X33.3315 Y25.1556
G01 X33.3875 Y25.1140
G01 X33.4473 Y25.0781
G01 X33.5104 Y25.0483
G01 X33.5760 Y25.0248
G01 X33.6437 Y25.0079
G01 X33.7127 Y24.9976
G01 X33.7824 Y24.9942
G01 X35.1032 Y24.9942
G01 X35.1728 Y24.9976
G01 X35.2406 Y25.0077
G01 X35.3095 Y25.0248
G01 X35.3751 Y25.0483
G01 X35.4382 Y25.0781
G01 X35.4990 Y25.1147
G01 X35.5540 Y25.1556
G01 X35.6066 Y25.2033
G01 X35.6541 Y25.2560
G01 X35.6941 Y25.3101
G01 X35.7181 Y25.3500
G00 Z2.0000
G00 X33.8685 Y6.3461
G01 F60.00
G01 Z0.0000
G01 F120.00
G01 X33.8747 Y6.3536
G01 X33.8793 Y6.3623
G01 X33.8822 Y6.3717
G01 X33.8832 Y6.3814
G01 X33.8831 Y6.9297
G01 X33.8822 Y6.9383
G01 X33.8793 Y6.9476
G01 X33.8747 Y6.9563
G01 X33.8685 Y6.9639
G01 X33.4817 Y7.3507
G01 X33.4741 Y7.3569
G01 X33.4666 Y7.3611
G01 X33.4620 Y7.3628
G01 X33.4561 Y7.3644
G01 X33.4463 Y7.3654
G01 X32.9643 Y7.3654
G01 X27.1777 Y13.1520
G01 X27.1777 Y17.3742
G01 X27.4832 Y17.3742
G01 X27.5504 Y17.3775
G01 X27.6218 Y17.3879
G01 X27.6871 Y17.4042
G01 X27.7551 Y17.4283
G01 X27.8203 Y17.4594
G01 X27.8780 Y17.4940
G01 X27.9321 Y17.5340
G01 X27.9839 Y17.5807
G01 X28.0341 Y17.6360
G01 X28.0741 Y17.6901
G01 X28.1088 Y17.7478
G01 X28.1398 Y17.8130
G01 X28.1639 Y17.8810
G01 X28.1802 Y17.9463
G01 X28.1902 Y18.0129
G01 X28.1939 Y18.0850
G01 X28.1902 Y18.1571
G01 X28.1802 Y18.2236
G01 X28.1639 Y18.2889
G01 X28.1398 Y18.3569
G01 X28.1088 Y18.4221
G01 X28.0741 Y18.4798
G01 X28.0341 Y18.5339
G01 X27.9839 Y18.5892
G01 X27.9340 Y18.6344
G01 X27.8800 Y18.6745
G01 X27.8182 Y18.7118
G01 X27.7551 Y18.7416
G01 X27.6918 Y18.7643
G01 X27.6206 Y18.7823
G01 X27.5528 Y18.7923
G01 X27.4832 Y18.7957
G01 X26.1624 Y18.7957
G01 X26.0951 Y18.7924
G01 X26.0237 Y18.7820
G01 X25.9537 Y18.7643
G01 X25.8904 Y18.7416
G01 X25.8295 Y18.7129
G01 X25.7675 Y18.6759
G01 X25.7115 Y18.6344
G01 X25.6598 Y18.5875
G01 X25.6130 Y18.5358
G01 X25.5728 Y18.4818
G01 X25.5344 Y18.4178
G01 X25.5057 Y18.3569
G01 X25.4816 Y18.2889
G01 X25.4653 Y18.2236
G01 X25.4550 Y18.1546
G01 X25.4516 Y18.0850
G01 X25.4550 Y18.0153
G01 X25.4653 Y17.9463
G01 X25.4822 Y17.8786
G01 X25.5057 Y17.8130
G01 X25.5355 Y17.7499
G01 X25.5714 Y17.6901
G01 X25.6130 Y17.6341
G01 X25.6598 Y17.5824
G01 X25.7096 Y17.5372
G01 X25.7696 Y17.4927
G01 X25.8273 Y17.4581
G01 X25.8904 Y17.4283
G01 X25.9560 Y17.4048
G01 X26.0213 Y17.3884
G01 X26.0927 Y17.3776
G01 X26.1624 Y17.3742
G01 X26.4678 Y17.3742
G01 X26.4678 Y13.0037
G01 X26.4695 Y12.9702
G01 X26.4742 Y12.9381
G01 X26.4831 Y12.9019
G01 X26.4958 Y12.8669
G01 X26.5097 Y12.8376
G01 X26.5276 Y12.8078
G01 X26.5484 Y12.7798
G01 X26.5718 Y12.7540
G01 X32.4624 Y6.8634
G01 X32.4624 Y6.3814
G01 X32.4627 Y6.3753
G01 X32.4636 Y6.3705
G01 X32.4666 Y6.3611
G01 X32.4715 Y6.3526
G01 X32.4770 Y6.3461
G01 X32.8666 Y5.9567
G01 X32.8735 Y5.9517
G01 X32.8812 Y5.9479
G01 X32.8895 Y5.9455
G01 X32.8980 Y5.9446
G01 X33.4463 Y5.9446
G01 X33.4548 Y5.9453
G01 X33.4643 Y5.9479
G01 X33.4731 Y5.9523
G01 X33.4780 Y5.9559
G01 X33.4817 Y5.9592
G01 X33.8685 Y6.3461
G00 Z2.0000
G00 X55.6778 Y5.3903
G01 F60.00
G01 Z0.0000
G01 F120.00
G01 X55.6379 Y5.3663
G01 X55.5838 Y5.3263
G01 X55.5311 Y5.2788
G01 X55.4834 Y5.2262
G01 X55.4425 Y5.1712
G01 X55.4059 Y5.1104
G01 X55.3761 Y5.0473
G01 X55.3526 Y4.9817
G01 X55.3355 Y4.9128
G01 X55.3254 Y4.8450
G01 X55.3220 Y4.7754
G01 X55.3220 Y3.4546
G01 X55.3254 Y3.3849
G01 X55.3357 Y3.3159
G01 X55.3526 Y3.2482
G01 X55.3761 Y3.1826
G01 X55.4059 Y3.1195
G01 X55.4418 Y3.0597
G01 X55.4834 Y3.0037
G01 X55.5302 Y2.9520
G01 X55.5819 Y2.9052
G01 X55.6379 Y2.8636
G01 X55.6977 Y2.8277
G01 X55.7608 Y2.7979
G01 X55.8264 Y2.7744
G01 X55.8941 Y2.7575
G01 X55.9631 Y2.7472
G01 X56.0328 Y2.7438
G01 X56.1024 Y2.7472
G01 X56.1714 Y2.7575
G01 X56.2391 Y2.7744
G01 X56.3047 Y2.7979
G01 X56.3678 Y2.8277
G01 X56.4255 Y2.8623
G01 X56.4855 Y2.9068
G01 X56.5353 Y2.9520
G01 X56.5822 Y3.0037
G01 X56.6237 Y3.0597
G01 X56.6584 Y3.1174
G01 X56.6903 Y3.1849
G01 X56.7129 Y3.2482
G01 X56.7298 Y3.3159
G01 X56.7401 Y3.3849
G01 X56.7435 Y3.4533
G01 X56.7435 Y4.7754
G01 X56.7401 Y4.8450
G01 X56.7301 Y4.9128
G01 X56.7129 Y4.9817
G01 X56.6894 Y5.0473
G01 X56.6596 Y5.1104
G01 X56.6230 Y5.1712
G01 X56.5822 Y5.2262
G01 X56.5344 Y5.2788
G01 X56.4817 Y5.3263
G01 X56.4276 Y5.3663
G01 X56.3877 Y5.3903
G01 X56.3877 Y12.3552
G01 X56.7285 Y12.6961
G01 X56.7347 Y12.7036
G01 X56.7378 Y12.7089
G01 X56.7398 Y12.7134
G01 X56.7422 Y12.7217
G01 X56.7432 Y12.7314
G01 X56.7431 Y13.2810
G01 X56.7417 Y13.2906
G01 X56.7389 Y13.2988
G01 X56.7340 Y13.3073
G01 X56.7285 Y13.3139
G01 X56.3408 Y13.7016
G01 X56.3341 Y13.7069
G01 X56.3266 Y13.7111
G01 X56.3185 Y13.7139
G01 X56.3100 Y13.7152
G01 X55.7592 Y13.7154
G01 X55.7543 Y13.7151
G01 X55.7483 Y13.7141
G01 X55.7389 Y13.7111
G01 X55.7304 Y13.7062
G01 X55.7239 Y13.7007
G01 X55.3361 Y13.3130
G01 X55.3308 Y13.3063
G01 X55.3266 Y13.2988
G01 X55.3239 Y13.2906
G01 X55.3225 Y13.2822
G01 X55.3224 Y12.7314
G01 X55.3233 Y12.7217
G01 X55.3257 Y12.7134
G01 X55.3301 Y12.7047
G01 X55.3337 Y12.6997
G01 X55.3370 Y12.6961
G01 X55.6778 Y12.3552
G01 X55.6778 Y5.3903
G00 Z2.0000
G00 X55.6778 Y33.3196
G01 F60.00
G01 Z0.0000
G01 F120.00
G01 X55.6778 Y26.3547
G01 X55.3370 Y26.0139
G01 X55.3308 Y26.0063
G01 X55.3277 Y26.0010
G01 X55.3257 Y25.9965
G01 X55.3233 Y25.9883
G01 X55.3224 Y25.9785
G01 X55.3225 Y25.4277
G01 X55.3239 Y25.4193
G01 X55.3266 Y25.4111
G01 X55.3308 Y25.4036
G01 X55.3361 Y25.3969
G01 X55.7239 Y25.0092
G01 X55.7314 Y25.0030
G01 X55.7389 Y24.9988
G01 X55.7483 Y24.9958
G01 X55.7531 Y24.9949
G01 X55.7592 Y24.9946
G01 X56.3100 Y24.9947
G01 X56.3185 Y24.9961
G01 X56.3266 Y24.9988
G01 X56.3341 Y25.0030
G01 X56.3408 Y25.0083
G01 X56.7285 Y25.3961
G01 X56.7340 Y25.4026
G01 X56.7389 Y25.4111
G01 X56.7417 Y25.4193
G01 X56.7431 Y25.4290
G01 X56.7432 Y25.9785
G01 X56.7422 Y25.9883
G01 X56.7398 Y25.9965
G01 X56.7354 Y26.0052
G01 X56.7318 Y26.0102
G01 X56.7285 Y26.0139
G01 X56.3877 Y26.3547
G01 X56.3877 Y33.3196
G01 X56.4276 Y33.3436
G01 X56.4817 Y33.3836
G01 X56.5344 Y33.4311
G01 X56.5822 Y33.4837
G01 X56.6230 Y33.5387
G01 X56.6596 Y33.5995
G01 X56.6894 Y33.6626
G01 X56.7129 Y33.7282
G01 X56.7301 Y33.7971
G01 X56.7401 Y33.8649
G01 X56.7435 Y33.9346
G01 X56.7435 Y35.2566
G01 X56.7401 Y35.3250
G01 X56.7298 Y35.3940
G01 X56.7129 Y35.4617
G01 X56.6903 Y35.5250
G01 X56.6584 Y35.5925
G01 X56.6237 Y35.6502
G01 X56.5822 Y35.7062
G01 X56.5353 Y35.7579
G01 X56.4836 Y35.8048
G01 X56.4276 Y35.8463
G01 X56.3699 Y35.8810
G01 X56.3025 Y35.9129
G01 X56.2391 Y35.9355
G01 X56.1714 Y35.9524
G01 X56.1024 Y35.9627
G01 X56.0328 Y35.9661
G01 X55.9631 Y35.9627
G01 X55.8941 Y35.9524
G01 X55.8264 Y35.9355
G01 X55.7608 Y35.9120
G01 X55.6977 Y35.8822
G01 X55.6379 Y35.8463
G01 X55.5819 Y35.8048
G01 X55.5302 Y35.7579
G01 X55.4834 Y35.7062
G01 X55.4418 Y35.6502
G01 X55.4059 Y35.5904
G01 X55.3761 Y35.5273
G01 X55.3526 Y35.4617
G01 X55.3357 Y35.3940
G01 X55.3254 Y35.3250
G01 X55.3220 Y35.2554
G01 X55.3220 Y33.9346
G01 X55.3254 Y33.8649
G01 X55.3355 Y33.7971
G01 X55.3526 Y33.7282
G01 X55.3761 Y33.6626
G01 X55.4059 Y33.5995
G01 X55.4425 Y33.5387
G01 X55.4834 Y33.4837
G01 X55.5311 Y33.4311
G01 X55.5838 Y33.3836
G01 X55.6379 Y33.3436
G01 X55.6778 Y33.3196
G00 Z2.0000
M05
G00 Z2.0000
G00 Z15.00


