(G-CODE GENERATED BY FLATCAM v8.994 - www.flatcam.org - Version Date: 2020/11/7)

(Name: copper_top.gbr_iso_combined_cnc)
(Type: G-code from Geometry)
(Units: MM)

(Created on Friday, 10 December 2021 at 11:41)

(This preprocessor is the default preprocessor used by FlatCAM.)
(It is made to work with MACH3 compatible motion controllers.)

(TOOL DIAMETER: 0.1 mm)
(Feedrate_XY: 120.0 mm/min)
(Feedrate_Z: 60.0 mm/min)
(Feedrate rapids 1500.0 mm/min)

(Z_Cut: 0.0 mm)
(Z_Move: 2.0 mm)
(Z Start: None mm)
(Z End: 15.0 mm)
(X,Y End: None mm)
(Steps per circle: 64)
(Preprocessor Geometry: default)

(X range:   -0.0500 ...   55.1177  mm)
(Y range:   -0.0500 ...   33.7819  mm)

(Spindle Speed: 0.0 RPM)
G21
G90
G94

G01 F120.00

M5
G00 Z15.0000
G00 X0.0000 Y0.0000
T1
M6    
(MSG, Change to Tool Dia = 0.1000)
M0
G00 Z15.0000

M03
G01 F120.00
G00 X24.9432 Y15.1900
G01 F60.00
G01 Z0.0000
G01 F120.00
G01 X25.0128 Y15.1934
G01 X25.0818 Y15.2037
G01 X25.1495 Y15.2206
G01 X25.2129 Y15.2432
G01 X25.2803 Y15.2751
G01 X25.3380 Y15.3098
G01 X25.3940 Y15.3513
G01 X25.4457 Y15.3982
G01 X25.4910 Y15.4480
G01 X25.5354 Y15.5079
G01 X25.5700 Y15.5657
G01 X25.5998 Y15.6287
G01 X25.6233 Y15.6944
G01 X25.6397 Y15.7597
G01 X25.6506 Y15.8335
G01 X25.6539 Y15.9007
G01 X25.6505 Y15.9704
G01 X25.6402 Y16.0394
G01 X25.6239 Y16.1047
G01 X25.5988 Y16.1750
G01 X25.5700 Y16.2358
G01 X25.5341 Y16.2956
G01 X25.4926 Y16.3516
G01 X25.4474 Y16.4015
G01 X25.3921 Y16.4516
G01 X25.3380 Y16.4917
G01 X25.2782 Y16.5275
G01 X25.2151 Y16.5574
G01 X25.1471 Y16.5815
G01 X25.0818 Y16.5978
G01 X25.0153 Y16.6077
G01 X24.9456 Y16.6114
G01 X23.6224 Y16.6115
G01 X23.5515 Y16.6079
G01 X23.4813 Y16.5973
G01 X23.4160 Y16.5809
G01 X23.3527 Y16.5582
G01 X23.2873 Y16.5275
G01 X23.2275 Y16.4917
G01 X23.1715 Y16.4501
G01 X23.1181 Y16.4015
G01 X23.0730 Y16.3516
G01 X23.0328 Y16.2976
G01 X22.9961 Y16.2368
G01 X22.9648 Y16.1704
G01 X22.9422 Y16.1070
G01 X22.9253 Y16.0394
G01 X22.9149 Y15.9679
G01 X22.9116 Y15.9007
G01 X22.9150 Y15.8311
G01 X22.9258 Y15.7597
G01 X22.9422 Y15.6944
G01 X22.9657 Y15.6287
G01 X22.9955 Y15.5657
G01 X23.0301 Y15.5079
G01 X23.0746 Y15.4480
G01 X23.1198 Y15.3982
G01 X23.1696 Y15.3529
G01 X23.2275 Y15.3098
G01 X23.2895 Y15.2728
G01 X23.3504 Y15.2441
G01 X23.4160 Y15.2206
G01 X23.4837 Y15.2037
G01 X23.5551 Y15.1932
G01 X23.6224 Y15.1900
G01 X23.9278 Y15.1900
G01 X23.9278 Y9.6978
G01 X18.1412 Y3.9111
G01 X17.6592 Y3.9111
G01 X17.6495 Y3.9102
G01 X17.6447 Y3.9090
G01 X17.6389 Y3.9068
G01 X17.6314 Y3.9027
G01 X17.6239 Y3.8965
G01 X17.2345 Y3.5069
G01 X17.2295 Y3.5000
G01 X17.2257 Y3.4923
G01 X17.2233 Y3.4840
G01 X17.2224 Y3.4755
G01 X17.2224 Y2.9272
G01 X17.2233 Y2.9174
G01 X17.2257 Y2.9092
G01 X17.2301 Y2.9004
G01 X17.2337 Y2.8955
G01 X17.2370 Y2.8918
G01 X17.6239 Y2.5050
G01 X17.6294 Y2.5002
G01 X17.6346 Y2.4968
G01 X17.6401 Y2.4941
G01 X17.6459 Y2.4921
G01 X17.6519 Y2.4909
G01 X17.6592 Y2.4903
G01 X18.2075 Y2.4903
G01 X18.2173 Y2.4915
G01 X18.2266 Y2.4946
G01 X18.2341 Y2.4988
G01 X18.2417 Y2.5050
G01 X18.6285 Y2.8918
G01 X18.6340 Y2.8984
G01 X18.6389 Y2.9069
G01 X18.6419 Y2.9162
G01 X18.6428 Y2.9211
G01 X18.6432 Y2.9272
G01 X18.6432 Y3.4092
G01 X24.5337 Y9.2997
G01 X24.5586 Y9.3275
G01 X24.5779 Y9.3535
G01 X24.5952 Y9.3823
G01 X24.6107 Y9.4149
G01 X24.6231 Y9.4501
G01 X24.6309 Y9.4815
G01 X24.6357 Y9.5135
G01 X24.6377 Y9.5507
G01 X24.6377 Y15.1900
G01 X24.9432 Y15.1900
G00 Z2.0000
G00 X23.0074 Y18.0858
G01 F60.00
G01 Z0.0000
G01 F120.00
G01 X23.0314 Y18.0459
G01 X23.0714 Y17.9918
G01 X23.1189 Y17.9390
G01 X23.1715 Y17.8913
G01 X23.2265 Y17.8505
G01 X23.2873 Y17.8139
G01 X23.3504 Y17.7841
G01 X23.4160 Y17.7606
G01 X23.4813 Y17.7442
G01 X23.5527 Y17.7334
G01 X23.6211 Y17.7300
G01 X24.4915 Y17.7300
G01 X26.5718 Y15.6497
G01 X26.5976 Y15.6263
G01 X26.6235 Y15.6070
G01 X26.6565 Y15.5871
G01 X26.6892 Y15.5719
G01 X26.7197 Y15.5611
G01 X26.7511 Y15.5531
G01 X26.7880 Y15.5475
G01 X26.8215 Y15.5458
G01 X27.9457 Y15.5458
G01 X30.2778 Y13.2137
G01 X30.2778 Y3.8504
G01 X29.9370 Y3.5096
G01 X29.9308 Y3.5021
G01 X29.9277 Y3.4968
G01 X29.9257 Y3.4923
G01 X29.9233 Y3.4840
G01 X29.9224 Y3.4743
G01 X29.9224 Y2.9247
G01 X29.9236 Y2.9162
G01 X29.9262 Y2.9081
G01 X29.9301 Y2.9004
G01 X29.9361 Y2.8927
G01 X30.3239 Y2.5050
G01 X30.3314 Y2.4988
G01 X30.3401 Y2.4941
G01 X30.3495 Y2.4913
G01 X30.3592 Y2.4903
G01 X30.9063 Y2.4903
G01 X30.9124 Y2.4907
G01 X30.9185 Y2.4918
G01 X30.9243 Y2.4937
G01 X30.9288 Y2.4957
G01 X30.9361 Y2.5002
G01 X30.9417 Y2.5050
G01 X31.3294 Y2.8927
G01 X31.3354 Y2.9004
G01 X31.3398 Y2.9092
G01 X31.3424 Y2.9186
G01 X31.3432 Y2.9272
G01 X31.3432 Y3.4743
G01 X31.3424 Y3.4828
G01 X31.3398 Y3.4923
G01 X31.3378 Y3.4968
G01 X31.3347 Y3.5021
G01 X31.3285 Y3.5096
G01 X30.9877 Y3.8504
G01 X30.9877 Y13.3607
G01 X30.9860 Y13.3955
G01 X30.9809 Y13.4300
G01 X30.9724 Y13.4638
G01 X30.9616 Y13.4943
G01 X30.9458 Y13.5281
G01 X30.9279 Y13.5579
G01 X30.9071 Y13.5859
G01 X30.8837 Y13.6117
G01 X28.3437 Y16.1517
G01 X28.3170 Y16.1759
G01 X28.2900 Y16.1959
G01 X28.2622 Y16.2126
G01 X28.2286 Y16.2287
G01 X28.1958 Y16.2404
G01 X28.1644 Y16.2483
G01 X28.1251 Y16.2542
G01 X28.0928 Y16.2557
G01 X26.9698 Y16.2557
G01 X25.3597 Y17.8658
G01 X25.3940 Y17.8913
G01 X25.4448 Y17.9373
G01 X25.4910 Y17.9880
G01 X25.5334 Y18.0449
G01 X25.5581 Y18.0858
G01 X29.3628 Y18.0858
G01 X29.3975 Y18.0875
G01 X29.4344 Y18.0931
G01 X29.4658 Y18.1011
G01 X29.4963 Y18.1119
G01 X29.5290 Y18.1271
G01 X29.5620 Y18.1470
G01 X29.5879 Y18.1663
G01 X29.6137 Y18.1897
G01 X31.6940 Y20.2700
G01 X32.5644 Y20.2700
G01 X32.6328 Y20.2734
G01 X32.6994 Y20.2832
G01 X32.7718 Y20.3014
G01 X32.8351 Y20.3241
G01 X32.8982 Y20.3539
G01 X32.9580 Y20.3898
G01 X33.0121 Y20.4298
G01 X33.0666 Y20.4790
G01 X33.1126 Y20.5298
G01 X33.1554 Y20.5879
G01 X33.1911 Y20.6479
G01 X33.2198 Y20.7087
G01 X33.2425 Y20.7721
G01 X33.2602 Y20.8421
G01 X33.2705 Y20.9111
G01 X33.2739 Y20.9807
G01 X33.2702 Y21.0528
G01 X33.2597 Y21.1218
G01 X33.2433 Y21.1870
G01 X33.2207 Y21.2504
G01 X33.1900 Y21.3158
G01 X33.1541 Y21.3756
G01 X33.1126 Y21.4316
G01 X33.0639 Y21.4850
G01 X33.0140 Y21.5301
G01 X32.9600 Y21.5703
G01 X32.9003 Y21.6063
G01 X32.8351 Y21.6374
G01 X32.7695 Y21.6609
G01 X32.7018 Y21.6778
G01 X32.6304 Y21.6882
G01 X32.5632 Y21.6915
G01 X31.2411 Y21.6914
G01 X31.1727 Y21.6880
G01 X31.1061 Y21.6782
G01 X31.0337 Y21.6601
G01 X30.9704 Y21.6374
G01 X30.9073 Y21.6075
G01 X30.8475 Y21.5717
G01 X30.7924 Y21.5309
G01 X30.7398 Y21.4833
G01 X30.6914 Y21.4297
G01 X30.6514 Y21.3756
G01 X30.6168 Y21.3179
G01 X30.5867 Y21.2550
G01 X30.5622 Y21.1870
G01 X30.5453 Y21.1194
G01 X30.5350 Y21.0504
G01 X30.5316 Y20.9795
G01 X30.5350 Y20.9111
G01 X30.5458 Y20.8397
G01 X30.5622 Y20.7744
G01 X30.5848 Y20.7110
G01 X30.6150 Y20.6468
G01 X30.6514 Y20.5859
G01 X30.6937 Y20.5289
G01 X30.7407 Y20.4773
G01 X30.7915 Y20.4313
G01 X30.8258 Y20.4058
G01 X29.2157 Y18.7957
G01 X25.5581 Y18.7957
G01 X25.5341 Y18.8356
G01 X25.4941 Y18.8897
G01 X25.4466 Y18.9424
G01 X25.3940 Y18.9901
G01 X25.3390 Y19.0310
G01 X25.2782 Y19.0675
G01 X25.2151 Y19.0974
G01 X25.1495 Y19.1209
G01 X25.0806 Y19.1380
G01 X25.0128 Y19.1480
G01 X24.9432 Y19.1515
G01 X23.6224 Y19.1515
G01 X23.5503 Y19.1477
G01 X23.4837 Y19.1378
G01 X23.4184 Y19.1215
G01 X23.3504 Y19.0974
G01 X23.2862 Y19.0669
G01 X23.2275 Y19.0317
G01 X23.1734 Y18.9916
G01 X23.1207 Y18.9441
G01 X23.0722 Y18.8907
G01 X23.0314 Y18.8356
G01 X23.0074 Y18.7957
G01 X21.7415 Y18.7957
G01 X21.7080 Y18.7940
G01 X21.6735 Y18.7889
G01 X21.6397 Y18.7804
G01 X21.6058 Y18.7682
G01 X21.5754 Y18.7538
G01 X21.5456 Y18.7359
G01 X21.5176 Y18.7151
G01 X21.4918 Y18.6917
G01 X17.7857 Y14.9857
G01 X12.2325 Y14.9857
G01 X11.8917 Y15.3265
G01 X11.8841 Y15.3327
G01 X11.8788 Y15.3358
G01 X11.8743 Y15.3378
G01 X11.8661 Y15.3402
G01 X11.8563 Y15.3411
G01 X11.3043 Y15.3409
G01 X11.2959 Y15.3393
G01 X11.2878 Y15.3363
G01 X11.2814 Y15.3327
G01 X11.2747 Y15.3273
G01 X10.8870 Y14.9396
G01 X10.8808 Y14.9321
G01 X10.8766 Y14.9245
G01 X10.8745 Y14.9188
G01 X10.8733 Y14.9140
G01 X10.8724 Y14.9043
G01 X10.8724 Y14.3572
G01 X10.8729 Y14.3498
G01 X10.8745 Y14.3427
G01 X10.8766 Y14.3369
G01 X10.8795 Y14.3315
G01 X10.8829 Y14.3264
G01 X10.8870 Y14.3218
G01 X11.2747 Y13.9341
G01 X11.2825 Y13.9281
G01 X11.2901 Y13.9241
G01 X11.2995 Y13.9213
G01 X11.3092 Y13.9203
G01 X11.8563 Y13.9203
G01 X11.8648 Y13.9211
G01 X11.8743 Y13.9237
G01 X11.8788 Y13.9257
G01 X11.8841 Y13.9288
G01 X11.8917 Y13.9350
G01 X12.2325 Y14.2758
G01 X17.9328 Y14.2758
G01 X17.9700 Y14.2778
G01 X18.0020 Y14.2826
G01 X18.0358 Y14.2911
G01 X18.0708 Y14.3038
G01 X18.1001 Y14.3177
G01 X18.1279 Y14.3343
G01 X18.1579 Y14.3563
G01 X18.1837 Y14.3797
G01 X21.8898 Y18.0858
G01 X23.0074 Y18.0858
G00 Z2.0000
G00 X23.2058 Y20.4058
G01 F60.00
G01 Z0.0000
G01 F120.00
G01 X22.8657 Y20.0657
G01 X12.2325 Y20.0657
G01 X11.9377 Y20.3604
G01 X11.9377 Y26.6810
G01 X12.2785 Y27.0218
G01 X12.2847 Y27.0294
G01 X12.2873 Y27.0336
G01 X12.2898 Y27.0392
G01 X12.2922 Y27.0474
G01 X12.2932 Y27.0572
G01 X12.2932 Y27.6043
G01 X12.2924 Y27.6128
G01 X12.2906 Y27.6200
G01 X12.2878 Y27.6268
G01 X12.2840 Y27.6331
G01 X12.2794 Y27.6388
G01 X11.8917 Y28.0265
G01 X11.8841 Y28.0327
G01 X11.8754 Y28.0373
G01 X11.8661 Y28.0402
G01 X11.8563 Y28.0411
G01 X11.3092 Y28.0411
G01 X11.2995 Y28.0402
G01 X11.2901 Y28.0373
G01 X11.2814 Y28.0327
G01 X11.2739 Y28.0265
G01 X10.8870 Y27.6396
G01 X10.8829 Y27.6350
G01 X10.8795 Y27.6300
G01 X10.8766 Y27.6245
G01 X10.8742 Y27.6176
G01 X10.8727 Y27.6104
G01 X10.8724 Y27.6043
G01 X10.8724 Y27.0572
G01 X10.8731 Y27.0486
G01 X10.8753 Y27.0403
G01 X10.8772 Y27.0358
G01 X10.8801 Y27.0304
G01 X10.8829 Y27.0264
G01 X10.8870 Y27.0218
G01 X11.2278 Y26.6810
G01 X11.2278 Y20.3604
G01 X10.8870 Y20.0196
G01 X10.8808 Y20.0121
G01 X10.8783 Y20.0078
G01 X10.8757 Y20.0023
G01 X10.8733 Y19.9940
G01 X10.8724 Y19.9843
G01 X10.8724 Y19.4347
G01 X10.8736 Y19.4262
G01 X10.8766 Y19.4169
G01 X10.8808 Y19.4094
G01 X10.8861 Y19.4027
G01 X11.2739 Y19.0150
G01 X11.2784 Y19.0109
G01 X11.2835 Y19.0074
G01 X11.2901 Y19.0041
G01 X11.2959 Y19.0021
G01 X11.3031 Y19.0007
G01 X11.3092 Y19.0003
G01 X11.8563 Y19.0003
G01 X11.8648 Y19.0011
G01 X11.8731 Y19.0033
G01 X11.8788 Y19.0057
G01 X11.8831 Y19.0081
G01 X11.8871 Y19.0109
G01 X11.8917 Y19.0150
G01 X12.2325 Y19.3558
G01 X23.0128 Y19.3558
G01 X23.0475 Y19.3575
G01 X23.0796 Y19.3622
G01 X23.1181 Y19.3718
G01 X23.1486 Y19.3828
G01 X23.1801 Y19.3977
G01 X23.2120 Y19.4170
G01 X23.2379 Y19.4363
G01 X23.2620 Y19.4580
G01 X24.0740 Y20.2700
G01 X24.9432 Y20.2700
G01 X25.0128 Y20.2734
G01 X25.0842 Y20.2842
G01 X25.1495 Y20.3006
G01 X25.2129 Y20.3232
G01 X25.2782 Y20.3539
G01 X25.3390 Y20.3905
G01 X25.3940 Y20.4313
G01 X25.4439 Y20.4765
G01 X25.4941 Y20.5318
G01 X25.5341 Y20.5859
G01 X25.5700 Y20.6457
G01 X25.5998 Y20.7087
G01 X25.6225 Y20.7721
G01 X25.6406 Y20.8445
G01 X25.6505 Y20.9111
G01 X25.6539 Y20.9807
G01 X25.6505 Y21.0504
G01 X25.6406 Y21.1170
G01 X25.6229 Y21.1882
G01 X25.5988 Y21.2550
G01 X25.5700 Y21.3158
G01 X25.5354 Y21.3735
G01 X25.4926 Y21.4316
G01 X25.4439 Y21.4850
G01 X25.3940 Y21.5301
G01 X25.3400 Y21.5703
G01 X25.2782 Y21.6075
G01 X25.2129 Y21.6382
G01 X25.1495 Y21.6609
G01 X25.0830 Y21.6775
G01 X25.0128 Y21.6880
G01 X24.9432 Y21.6915
G01 X23.6224 Y21.6915
G01 X23.5527 Y21.6880
G01 X23.4861 Y21.6782
G01 X23.4149 Y21.6605
G01 X23.3504 Y21.6374
G01 X23.2895 Y21.6086
G01 X23.2275 Y21.5717
G01 X23.1696 Y21.5285
G01 X23.1198 Y21.4833
G01 X23.0746 Y21.4335
G01 X23.0314 Y21.3756
G01 X22.9944 Y21.3136
G01 X22.9657 Y21.2527
G01 X22.9430 Y21.1894
G01 X22.9251 Y21.1182
G01 X22.9150 Y21.0504
G01 X22.9117 Y20.9832
G01 X22.9150 Y20.9111
G01 X22.9258 Y20.8397
G01 X22.9422 Y20.7744
G01 X22.9653 Y20.7099
G01 X22.9968 Y20.6436
G01 X23.0314 Y20.5859
G01 X23.0722 Y20.5308
G01 X23.1207 Y20.4773
G01 X23.1715 Y20.4313
G01 X23.2058 Y20.4058
G00 Z2.0000
G00 X32.9797 Y19.0157
G01 F60.00
G01 Z0.0000
G01 F120.00
G01 X33.3198 Y19.3558
G01 X47.7631 Y19.3558
G01 X48.0578 Y19.0610
G01 X48.0578 Y16.5504
G01 X47.7170 Y16.2096
G01 X47.7108 Y16.2021
G01 X47.7077 Y16.1968
G01 X47.7057 Y16.1923
G01 X47.7033 Y16.1840
G01 X47.7024 Y16.1743
G01 X47.7024 Y15.6272
G01 X47.7031 Y15.6186
G01 X47.7053 Y15.6103
G01 X47.7077 Y15.6047
G01 X47.7101 Y15.6004
G01 X47.7137 Y15.5955
G01 X47.7170 Y15.5918
G01 X48.1039 Y15.2050
G01 X48.1114 Y15.1988
G01 X48.1201 Y15.1941
G01 X48.1295 Y15.1913
G01 X48.1392 Y15.1903
G01 X48.6863 Y15.1903
G01 X48.6961 Y15.1913
G01 X48.7054 Y15.1941
G01 X48.7141 Y15.1988
G01 X48.7217 Y15.2050
G01 X49.1094 Y15.5927
G01 X49.1140 Y15.5984
G01 X49.1178 Y15.6047
G01 X49.1202 Y15.6103
G01 X49.1222 Y15.6174
G01 X49.1232 Y15.6272
G01 X49.1232 Y16.1743
G01 X49.1222 Y16.1840
G01 X49.1198 Y16.1923
G01 X49.1154 Y16.2010
G01 X49.1118 Y16.2060
G01 X49.1085 Y16.2096
G01 X48.7677 Y16.5504
G01 X48.7677 Y19.0610
G01 X49.1085 Y19.4018
G01 X49.1147 Y19.4094
G01 X49.1178 Y19.4147
G01 X49.1198 Y19.4192
G01 X49.1224 Y19.4286
G01 X49.1232 Y19.4372
G01 X49.1229 Y19.9892
G01 X49.1213 Y19.9976
G01 X49.1184 Y20.0057
G01 X49.1140 Y20.0131
G01 X49.1085 Y20.0196
G01 X48.7208 Y20.4073
G01 X48.7161 Y20.4113
G01 X48.7099 Y20.4152
G01 X48.7031 Y20.4182
G01 X48.6961 Y20.4202
G01 X48.6863 Y20.4211
G01 X48.1392 Y20.4211
G01 X48.1307 Y20.4204
G01 X48.1212 Y20.4178
G01 X48.1167 Y20.4158
G01 X48.1114 Y20.4127
G01 X48.1039 Y20.4065
G01 X47.7631 Y20.0657
G01 X33.1728 Y20.0657
G01 X33.1367 Y20.0638
G01 X33.1035 Y20.0589
G01 X33.0721 Y20.0511
G01 X33.0369 Y20.0387
G01 X33.0054 Y20.0238
G01 X32.9776 Y20.0072
G01 X32.9457 Y19.9835
G01 X32.9218 Y19.9617
G01 X32.1115 Y19.1515
G01 X31.2424 Y19.1515
G01 X31.1727 Y19.1480
G01 X31.1013 Y19.1373
G01 X31.0360 Y19.1209
G01 X30.9727 Y19.0982
G01 X30.9073 Y19.0675
G01 X30.8465 Y19.0310
G01 X30.7915 Y18.9901
G01 X30.7416 Y18.9450
G01 X30.6914 Y18.8897
G01 X30.6514 Y18.8356
G01 X30.6155 Y18.7758
G01 X30.5857 Y18.7127
G01 X30.5630 Y18.6494
G01 X30.5449 Y18.5770
G01 X30.5350 Y18.5104
G01 X30.5316 Y18.4407
G01 X30.5350 Y18.3711
G01 X30.5449 Y18.3045
G01 X30.5626 Y18.2332
G01 X30.5857 Y18.1687
G01 X30.6144 Y18.1079
G01 X30.6514 Y18.0459
G01 X30.6946 Y17.9880
G01 X30.7398 Y17.9382
G01 X30.7896 Y17.8929
G01 X30.8475 Y17.8498
G01 X30.9095 Y17.8128
G01 X30.9704 Y17.7841
G01 X31.0337 Y17.7614
G01 X31.1025 Y17.7439
G01 X31.1727 Y17.7334
G01 X31.2424 Y17.7300
G01 X32.5632 Y17.7300
G01 X32.6328 Y17.7334
G01 X32.6994 Y17.7432
G01 X32.7706 Y17.7610
G01 X32.8351 Y17.7841
G01 X32.8960 Y17.8128
G01 X32.9580 Y17.8498
G01 X33.0159 Y17.8929
G01 X33.0657 Y17.9382
G01 X33.1110 Y17.9880
G01 X33.1541 Y18.0459
G01 X33.1911 Y18.1079
G01 X33.2198 Y18.1687
G01 X33.2425 Y18.2321
G01 X33.2605 Y18.3033
G01 X33.2705 Y18.3711
G01 X33.2738 Y18.4383
G01 X33.2705 Y18.5104
G01 X33.2597 Y18.5818
G01 X33.2433 Y18.6470
G01 X33.2202 Y18.7116
G01 X33.1888 Y18.7779
G01 X33.1541 Y18.8356
G01 X33.1133 Y18.8907
G01 X33.0648 Y18.9441
G01 X33.0140 Y18.9901
G01 X32.9797 Y19.0157
G00 Z2.0000
G00 X33.1781 Y15.5458
G01 F60.00
G01 Z0.0000
G01 F120.00
G01 X35.5657 Y15.5458
G01 X36.6278 Y14.4837
G01 X36.6278 Y4.6178
G01 X34.2957 Y2.2857
G01 X12.9998 Y2.2857
G01 X8.1277 Y7.1578
G01 X8.1277 Y26.0607
G01 X8.1262 Y26.0931
G01 X8.1204 Y26.1324
G01 X8.1124 Y26.1638
G01 X8.1007 Y26.1966
G01 X8.0858 Y26.2281
G01 X8.0692 Y26.2559
G01 X8.0455 Y26.2878
G01 X8.0237 Y26.3117
G01 X7.0047 Y27.3307
G01 X11.3743 Y31.7003
G01 X11.7912 Y31.7003
G01 X16.4118 Y27.0797
G01 X16.4376 Y27.0563
G01 X16.4656 Y27.0356
G01 X16.4954 Y27.0177
G01 X16.5281 Y27.0023
G01 X16.5597 Y26.9911
G01 X16.5935 Y26.9826
G01 X16.6280 Y26.9775
G01 X16.6628 Y26.9758
G01 X23.9278 Y26.9758
G01 X23.9278 Y24.2315
G01 X23.6224 Y24.2315
G01 X23.5551 Y24.2282
G01 X23.4837 Y24.2178
G01 X23.4184 Y24.2015
G01 X23.3504 Y24.1774
G01 X23.2852 Y24.1463
G01 X23.2275 Y24.1117
G01 X23.1734 Y24.0716
G01 X23.1216 Y24.0250
G01 X23.0714 Y23.9697
G01 X23.0314 Y23.9156
G01 X22.9968 Y23.8579
G01 X22.9657 Y23.7927
G01 X22.9416 Y23.7247
G01 X22.9253 Y23.6594
G01 X22.9153 Y23.5928
G01 X22.9116 Y23.5207
G01 X22.9153 Y23.4486
G01 X22.9253 Y23.3821
G01 X22.9419 Y23.3156
G01 X22.9667 Y23.2465
G01 X22.9955 Y23.1857
G01 X23.0301 Y23.1279
G01 X23.0730 Y23.0698
G01 X23.1216 Y23.0165
G01 X23.1715 Y22.9713
G01 X23.2255 Y22.9312
G01 X23.2873 Y22.8939
G01 X23.3527 Y22.8632
G01 X23.4160 Y22.8406
G01 X23.4825 Y22.8239
G01 X23.5527 Y22.8134
G01 X23.6224 Y22.8100
G01 X24.9432 Y22.8100
G01 X25.0128 Y22.8134
G01 X25.0806 Y22.8234
G01 X25.1495 Y22.8406
G01 X25.2151 Y22.8641
G01 X25.2782 Y22.8939
G01 X25.3359 Y22.9285
G01 X25.3959 Y22.9729
G01 X25.4457 Y23.0182
G01 X25.4941 Y23.0718
G01 X25.5341 Y23.1259
G01 X25.5700 Y23.1857
G01 X25.5998 Y23.2487
G01 X25.6233 Y23.3144
G01 X25.6402 Y23.3821
G01 X25.6505 Y23.4511
G01 X25.6539 Y23.5207
G01 X25.6505 Y23.5904
G01 X25.6402 Y23.6594
G01 X25.6225 Y23.7294
G01 X25.5988 Y23.7950
G01 X25.5700 Y23.8558
G01 X25.5354 Y23.9135
G01 X25.4926 Y23.9716
G01 X25.4457 Y24.0233
G01 X25.3940 Y24.0701
G01 X25.3370 Y24.1124
G01 X25.2782 Y24.1475
G01 X25.2151 Y24.1774
G01 X25.1495 Y24.2009
G01 X25.0806 Y24.2180
G01 X25.0128 Y24.2280
G01 X24.9444 Y24.2314
G01 X24.6377 Y24.2315
G01 X24.6377 Y27.1837
G01 X29.5098 Y32.0558
G01 X45.1620 Y32.0558
G01 X45.1620 Y31.7491
G01 X45.1654 Y31.6807
G01 X45.1759 Y31.6105
G01 X45.1934 Y31.5417
G01 X45.2161 Y31.4783
G01 X45.2448 Y31.4175
G01 X45.2818 Y31.3555
G01 X45.3226 Y31.3004
G01 X45.3702 Y31.2478
G01 X45.4238 Y31.1994
G01 X45.4779 Y31.1594
G01 X45.5356 Y31.1247
G01 X45.6008 Y31.0937
G01 X45.6664 Y31.0702
G01 X45.7365 Y31.0528
G01 X45.8031 Y31.0430
G01 X45.8703 Y31.0397
G01 X45.9424 Y31.0430
G01 X46.0114 Y31.0533
G01 X46.0791 Y31.0702
G01 X46.1447 Y31.0937
G01 X46.2056 Y31.1224
G01 X46.2696 Y31.1608
G01 X46.3236 Y31.2009
G01 X46.3753 Y31.2478
G01 X46.4222 Y31.2994
G01 X46.4623 Y31.3535
G01 X46.5007 Y31.4175
G01 X46.5294 Y31.4783
G01 X46.5529 Y31.5440
G01 X46.5698 Y31.6117
G01 X46.5799 Y31.6794
G01 X46.5835 Y31.7503
G01 X46.5835 Y33.0711
G01 X46.5801 Y33.1408
G01 X46.5702 Y33.2074
G01 X46.5529 Y33.2774
G01 X46.5294 Y33.3431
G01 X46.4996 Y33.4062
G01 X46.4637 Y33.4660
G01 X46.4222 Y33.5220
G01 X46.3753 Y33.5737
G01 X46.3236 Y33.6205
G01 X46.2686 Y33.6614
G01 X46.2056 Y33.6990
G01 X46.1447 Y33.7278
G01 X46.0791 Y33.7513
G01 X46.0114 Y33.7682
G01 X45.9449 Y33.7781
G01 X45.8703 Y33.7818
G01 X45.8031 Y33.7784
G01 X45.7341 Y33.7682
G01 X45.6664 Y33.7513
G01 X45.6031 Y33.7286
G01 X45.5356 Y33.6967
G01 X45.4779 Y33.6621
G01 X45.4219 Y33.6205
G01 X45.3685 Y33.5719
G01 X45.3234 Y33.5220
G01 X45.2818 Y33.4660
G01 X45.2459 Y33.4062
G01 X45.2171 Y33.3454
G01 X45.1926 Y33.2774
G01 X45.1757 Y33.2098
G01 X45.1653 Y33.1383
G01 X45.1620 Y33.0711
G01 X45.1620 Y32.7657
G01 X29.3628 Y32.7657
G01 X29.3255 Y32.7637
G01 X29.2935 Y32.7589
G01 X29.2609 Y32.7507
G01 X29.2269 Y32.7387
G01 X29.1933 Y32.7226
G01 X29.1656 Y32.7059
G01 X29.1395 Y32.6866
G01 X29.1118 Y32.6617
G01 X24.1357 Y27.6857
G01 X16.8098 Y27.6857
G01 X12.2932 Y32.2023
G01 X12.2932 Y32.6843
G01 X12.2928 Y32.6904
G01 X12.2919 Y32.6952
G01 X12.2889 Y32.7045
G01 X12.2847 Y32.7121
G01 X12.2785 Y32.7196
G01 X11.8917 Y33.1065
G01 X11.8841 Y33.1127
G01 X11.8766 Y33.1168
G01 X11.8673 Y33.1199
G01 X11.8575 Y33.1211
G01 X11.3092 Y33.1211
G01 X11.3031 Y33.1208
G01 X11.2959 Y33.1193
G01 X11.2878 Y33.1163
G01 X11.2804 Y33.1120
G01 X11.2747 Y33.1073
G01 X10.8870 Y32.7196
G01 X10.8815 Y32.7131
G01 X10.8772 Y32.7057
G01 X10.8753 Y32.7011
G01 X10.8736 Y32.6952
G01 X10.8726 Y32.6892
G01 X10.8724 Y32.6843
G01 X10.8724 Y32.2023
G01 X6.3557 Y27.6857
G01 X2.8076 Y27.6857
G01 X2.8044 Y27.6919
G01 X2.7672 Y27.7538
G01 X2.7226 Y27.8139
G01 X2.6725 Y27.8692
G01 X2.6151 Y27.9209
G01 X2.5571 Y27.9639
G01 X2.4951 Y28.0012
G01 X2.4276 Y28.0333
G01 X2.3550 Y28.0595
G01 X2.2825 Y28.0777
G01 X2.2086 Y28.0886
G01 X2.1340 Y28.0923
G01 X0.7116 Y28.0923
G01 X0.6345 Y28.0883
G01 X0.5630 Y28.0777
G01 X0.4905 Y28.0595
G01 X0.4179 Y28.0333
G01 X0.3526 Y28.0024
G01 X0.2885 Y27.9639
G01 X0.2284 Y27.9194
G01 X0.1748 Y27.8709
G01 X0.1229 Y27.8139
G01 X0.0783 Y27.7538
G01 X0.0411 Y27.6919
G01 X0.0071 Y27.6199
G01 X-0.0179 Y27.5494
G01 X-0.0354 Y27.4793
G01 X-0.0460 Y27.4078
G01 X-0.0500 Y27.3307
G01 X-0.0465 Y27.2585
G01 X-0.0354 Y27.1822
G01 X-0.0172 Y27.1097
G01 X0.0080 Y27.0393
G01 X0.0399 Y26.9717
G01 X0.0783 Y26.9076
G01 X0.1229 Y26.8476
G01 X0.1731 Y26.7922
G01 X0.2304 Y26.7405
G01 X0.2885 Y26.6975
G01 X0.3504 Y26.6603
G01 X0.4179 Y26.6281
G01 X0.4905 Y26.6020
G01 X0.5618 Y26.5841
G01 X0.6369 Y26.5728
G01 X0.7116 Y26.5692
G01 X2.1340 Y26.5692
G01 X2.2086 Y26.5728
G01 X2.2813 Y26.5836
G01 X2.3550 Y26.6020
G01 X2.4276 Y26.6281
G01 X2.4930 Y26.6591
G01 X2.5550 Y26.6962
G01 X2.6151 Y26.7405
G01 X2.6725 Y26.7922
G01 X2.7226 Y26.8476
G01 X2.7672 Y26.9076
G01 X2.8044 Y26.9696
G01 X2.8076 Y26.9758
G01 X6.3557 Y26.9758
G01 X7.4178 Y25.9137
G01 X7.4178 Y7.0107
G01 X7.4195 Y6.9759
G01 X7.4249 Y6.9403
G01 X7.4331 Y6.9077
G01 X7.4439 Y6.8772
G01 X7.4597 Y6.8434
G01 X7.4776 Y6.8135
G01 X7.4969 Y6.7875
G01 X7.5218 Y6.7597
G01 X12.6018 Y1.6797
G01 X12.6276 Y1.6563
G01 X12.6556 Y1.6356
G01 X12.6854 Y1.6177
G01 X12.7192 Y1.6019
G01 X12.7497 Y1.5911
G01 X12.7835 Y1.5826
G01 X12.8180 Y1.5775
G01 X12.8528 Y1.5758
G01 X34.4428 Y1.5758
G01 X34.4800 Y1.5778
G01 X34.5120 Y1.5826
G01 X34.5458 Y1.5911
G01 X34.5808 Y1.6038
G01 X34.6101 Y1.6177
G01 X34.6400 Y1.6356
G01 X34.6679 Y1.6563
G01 X34.6937 Y1.6797
G01 X37.2346 Y4.2206
G01 X37.2571 Y4.2456
G01 X37.2765 Y4.2715
G01 X37.2958 Y4.3034
G01 X37.3116 Y4.3372
G01 X37.3224 Y4.3677
G01 X37.3309 Y4.4015
G01 X37.3360 Y4.4359
G01 X37.3377 Y4.4707
G01 X37.3377 Y14.6307
G01 X37.3360 Y14.6655
G01 X37.3309 Y14.7000
G01 X37.3224 Y14.7338
G01 X37.3107 Y14.7666
G01 X37.2969 Y14.7959
G01 X37.2765 Y14.8299
G01 X37.2571 Y14.8559
G01 X37.2337 Y14.8817
G01 X35.9629 Y16.1526
G01 X35.9379 Y16.1751
G01 X35.9120 Y16.1944
G01 X35.8801 Y16.2138
G01 X35.8486 Y16.2287
G01 X35.8181 Y16.2396
G01 X35.7820 Y16.2489
G01 X35.7475 Y16.2540
G01 X35.7128 Y16.2557
G01 X33.1781 Y16.2557
G01 X33.1541 Y16.2956
G01 X33.1141 Y16.3497
G01 X33.0666 Y16.4024
G01 X33.0140 Y16.4501
G01 X32.9590 Y16.4910
G01 X32.8982 Y16.5275
G01 X32.8351 Y16.5574
G01 X32.7695 Y16.5809
G01 X32.7006 Y16.5980
G01 X32.6328 Y16.6080
G01 X32.5632 Y16.6115
G01 X31.2399 Y16.6114
G01 X31.1727 Y16.6080
G01 X31.1037 Y16.5978
G01 X31.0360 Y16.5809
G01 X30.9727 Y16.5582
G01 X30.9052 Y16.5263
G01 X30.8475 Y16.4917
G01 X30.7915 Y16.4501
G01 X30.7398 Y16.4033
G01 X30.6930 Y16.3516
G01 X30.6514 Y16.2956
G01 X30.6168 Y16.2379
G01 X30.5848 Y16.1704
G01 X30.5622 Y16.1070
G01 X30.5453 Y16.0394
G01 X30.5350 Y15.9704
G01 X30.5316 Y15.9007
G01 X30.5350 Y15.8311
G01 X30.5453 Y15.7621
G01 X30.5622 Y15.6944
G01 X30.5857 Y15.6287
G01 X30.6155 Y15.5657
G01 X30.6514 Y15.5059
G01 X30.6930 Y15.4498
G01 X30.7398 Y15.3982
G01 X30.7915 Y15.3513
G01 X30.8475 Y15.3098
G01 X30.9073 Y15.2739
G01 X30.9704 Y15.2441
G01 X31.0360 Y15.2206
G01 X31.1037 Y15.2037
G01 X31.1727 Y15.1934
G01 X31.2424 Y15.1900
G01 X32.5632 Y15.1900
G01 X32.6328 Y15.1934
G01 X32.7006 Y15.2034
G01 X32.7695 Y15.2206
G01 X32.8351 Y15.2441
G01 X32.8982 Y15.2739
G01 X32.9590 Y15.3105
G01 X33.0140 Y15.3513
G01 X33.0666 Y15.3990
G01 X33.1141 Y15.4518
G01 X33.1541 Y15.5059
G01 X33.1781 Y15.5458
G00 Z2.0000
G00 X32.9797 Y22.9458
G01 F60.00
G01 Z0.0000
G01 F120.00
G01 X33.0140 Y22.9713
G01 X33.0648 Y23.0173
G01 X33.1133 Y23.0708
G01 X33.1541 Y23.1259
G01 X33.1888 Y23.1836
G01 X33.2202 Y23.2499
G01 X33.2433 Y23.3144
G01 X33.2597 Y23.3797
G01 X33.2705 Y23.4511
G01 X33.2738 Y23.5232
G01 X33.2705 Y23.5904
G01 X33.2605 Y23.6582
G01 X33.2425 Y23.7294
G01 X33.2198 Y23.7927
G01 X33.1911 Y23.8536
G01 X33.1541 Y23.9156
G01 X33.1110 Y23.9735
G01 X33.0657 Y24.0233
G01 X33.0159 Y24.0685
G01 X32.9580 Y24.1117
G01 X32.8960 Y24.1486
G01 X32.8351 Y24.1774
G01 X32.7706 Y24.2005
G01 X32.6994 Y24.2182
G01 X32.6328 Y24.2280
G01 X32.5632 Y24.2315
G01 X31.2424 Y24.2315
G01 X31.1727 Y24.2280
G01 X31.1025 Y24.2175
G01 X31.0337 Y24.2001
G01 X30.9704 Y24.1774
G01 X30.9095 Y24.1486
G01 X30.8475 Y24.1117
G01 X30.7896 Y24.0685
G01 X30.7398 Y24.0233
G01 X30.6946 Y23.9735
G01 X30.6514 Y23.9156
G01 X30.6144 Y23.8536
G01 X30.5857 Y23.7927
G01 X30.5626 Y23.7282
G01 X30.5449 Y23.6570
G01 X30.5350 Y23.5904
G01 X30.5316 Y23.5207
G01 X30.5350 Y23.4511
G01 X30.5449 Y23.3845
G01 X30.5630 Y23.3121
G01 X30.5857 Y23.2487
G01 X30.6155 Y23.1857
G01 X30.6514 Y23.1259
G01 X30.6914 Y23.0718
G01 X30.7416 Y23.0165
G01 X30.7915 Y22.9713
G01 X30.8465 Y22.9305
G01 X30.9073 Y22.8939
G01 X30.9727 Y22.8632
G01 X31.0360 Y22.8406
G01 X31.1013 Y22.8242
G01 X31.1727 Y22.8134
G01 X31.2424 Y22.8100
G01 X32.1115 Y22.8100
G01 X32.9218 Y21.9997
G01 X32.9457 Y21.9780
G01 X32.9776 Y21.9543
G01 X33.0054 Y21.9377
G01 X33.0369 Y21.9228
G01 X33.0721 Y21.9104
G01 X33.1035 Y21.9026
G01 X33.1367 Y21.8976
G01 X33.1728 Y21.8958
G01 X53.3457 Y21.8958
G01 X54.4078 Y20.8337
G01 X54.4078 Y5.8878
G01 X49.6265 Y1.1064
G01 X49.6210 Y1.1135
G01 X49.5757 Y1.1633
G01 X49.5240 Y1.2101
G01 X49.4680 Y1.2517
G01 X49.4082 Y1.2875
G01 X49.3451 Y1.3174
G01 X49.2795 Y1.3409
G01 X49.2118 Y1.3578
G01 X49.1453 Y1.3677
G01 X49.0732 Y1.3715
G01 X47.7524 Y1.3715
G01 X47.6803 Y1.3677
G01 X47.6137 Y1.3578
G01 X47.5484 Y1.3415
G01 X47.4804 Y1.3174
G01 X47.4162 Y1.2869
G01 X47.3575 Y1.2517
G01 X47.3034 Y1.2116
G01 X47.2507 Y1.1641
G01 X47.2022 Y1.1107
G01 X47.1614 Y1.0556
G01 X47.1374 Y1.0157
G01 X31.2825 Y1.0157
G01 X30.9417 Y1.3565
G01 X30.9371 Y1.3605
G01 X30.9331 Y1.3634
G01 X30.9243 Y1.3678
G01 X30.9161 Y1.3702
G01 X30.9063 Y1.3711
G01 X30.3592 Y1.3711
G01 X30.3495 Y1.3702
G01 X30.3401 Y1.3673
G01 X30.3314 Y1.3627
G01 X30.3247 Y1.3573
G01 X29.9831 Y1.0157
G01 X18.5825 Y1.0157
G01 X18.2417 Y1.3565
G01 X18.2341 Y1.3627
G01 X18.2288 Y1.3658
G01 X18.2243 Y1.3678
G01 X18.2148 Y1.3704
G01 X18.2063 Y1.3711
G01 X17.6592 Y1.3711
G01 X17.6495 Y1.3702
G01 X17.6401 Y1.3673
G01 X17.6325 Y1.3634
G01 X17.6247 Y1.3573
G01 X17.2831 Y1.0157
G01 X2.8398 Y1.0157
G01 X1.7777 Y2.0778
G01 X1.7777 Y24.0292
G01 X2.1352 Y24.0292
G01 X2.2086 Y24.0328
G01 X2.2813 Y24.0436
G01 X2.3550 Y24.0620
G01 X2.4254 Y24.0871
G01 X2.4930 Y24.1191
G01 X2.5571 Y24.1575
G01 X2.6171 Y24.2020
G01 X2.6741 Y24.2540
G01 X2.7226 Y24.3076
G01 X2.7658 Y24.3656
G01 X2.8056 Y24.4317
G01 X2.8375 Y24.4993
G01 X2.8634 Y24.5720
G01 X2.8809 Y24.6422
G01 X2.8915 Y24.7136
G01 X2.8955 Y24.7895
G01 X2.8918 Y24.8654
G01 X2.8809 Y24.9393
G01 X2.8627 Y25.0118
G01 X2.8375 Y25.0822
G01 X2.8056 Y25.1497
G01 X2.7672 Y25.2138
G01 X2.7226 Y25.2739
G01 X2.6725 Y25.3292
G01 X2.6171 Y25.3794
G01 X2.5571 Y25.4239
G01 X2.4930 Y25.4624
G01 X2.4254 Y25.4943
G01 X2.3550 Y25.5195
G01 X2.2825 Y25.5377
G01 X2.2086 Y25.5486
G01 X2.1352 Y25.5523
G01 X0.7103 Y25.5523
G01 X0.6369 Y25.5486
G01 X0.5654 Y25.5381
G01 X0.4882 Y25.5187
G01 X0.4201 Y25.4943
G01 X0.3548 Y25.4635
G01 X0.2865 Y25.4225
G01 X0.2284 Y25.3794
G01 X0.1731 Y25.3292
G01 X0.1229 Y25.2739
G01 X0.0798 Y25.2158
G01 X0.0388 Y25.1475
G01 X0.0080 Y25.0822
G01 X-0.0172 Y25.0118
G01 X-0.0358 Y24.9369
G01 X-0.0463 Y24.8654
G01 X-0.0499 Y24.7932
G01 X-0.0463 Y24.7161
G01 X-0.0348 Y24.6398
G01 X-0.0172 Y24.5697
G01 X0.0071 Y24.5016
G01 X0.0399 Y24.4317
G01 X0.0798 Y24.3656
G01 X0.1229 Y24.3076
G01 X0.1714 Y24.2540
G01 X0.2284 Y24.2020
G01 X0.2885 Y24.1575
G01 X0.3526 Y24.1191
G01 X0.4201 Y24.0871
G01 X0.4905 Y24.0620
G01 X0.5642 Y24.0436
G01 X0.6369 Y24.0328
G01 X0.7103 Y24.0292
G01 X1.0678 Y24.0292
G01 X1.0678 Y1.9307
G01 X1.0698 Y1.8935
G01 X1.0746 Y1.8615
G01 X1.0831 Y1.8277
G01 X1.0948 Y1.7949
G01 X1.1086 Y1.7656
G01 X1.1276 Y1.7335
G01 X1.1484 Y1.7056
G01 X1.1718 Y1.6797
G01 X2.4435 Y0.4080
G01 X2.4676 Y0.3863
G01 X2.4956 Y0.3656
G01 X2.5254 Y0.3477
G01 X2.5569 Y0.3328
G01 X2.5897 Y0.3211
G01 X2.6235 Y0.3126
G01 X2.6580 Y0.3075
G01 X2.6915 Y0.3058
G01 X17.2831 Y0.3058
G01 X17.6247 Y-0.0359
G01 X17.6325 Y-0.0419
G01 X17.6401 Y-0.0459
G01 X17.6495 Y-0.0487
G01 X17.6592 Y-0.0497
G01 X18.2063 Y-0.0497
G01 X18.2161 Y-0.0487
G01 X18.2243 Y-0.0463
G01 X18.2288 Y-0.0443
G01 X18.2341 Y-0.0412
G01 X18.2417 Y-0.0350
G01 X18.5825 Y0.3058
G01 X29.9831 Y0.3058
G01 X30.3239 Y-0.0350
G01 X30.3284 Y-0.0391
G01 X30.3325 Y-0.0419
G01 X30.3412 Y-0.0463
G01 X30.3495 Y-0.0487
G01 X30.3592 Y-0.0497
G01 X30.9063 Y-0.0497
G01 X30.9161 Y-0.0487
G01 X30.9254 Y-0.0459
G01 X30.9331 Y-0.0419
G01 X30.9408 Y-0.0359
G01 X31.2825 Y0.3058
G01 X47.1374 Y0.3058
G01 X47.1614 Y0.2659
G01 X47.2014 Y0.2118
G01 X47.2489 Y0.1590
G01 X47.3015 Y0.1113
G01 X47.3565 Y0.0705
G01 X47.4173 Y0.0339
G01 X47.4804 Y0.0041
G01 X47.5460 Y-0.0194
G01 X47.6149 Y-0.0366
G01 X47.6827 Y-0.0466
G01 X47.7524 Y-0.0500
G01 X49.0732 Y-0.0500
G01 X49.1428 Y-0.0466
G01 X49.2142 Y-0.0358
G01 X49.2795 Y-0.0194
G01 X49.3429 Y0.0032
G01 X49.4082 Y0.0339
G01 X49.4700 Y0.0712
G01 X49.5240 Y0.1113
G01 X49.5748 Y0.1573
G01 X49.6233 Y0.2108
G01 X49.6641 Y0.2659
G01 X49.6882 Y0.3060
G01 X49.7175 Y0.3075
G01 X49.7520 Y0.3126
G01 X49.7858 Y0.3211
G01 X49.8163 Y0.3319
G01 X49.8522 Y0.3489
G01 X49.8800 Y0.3656
G01 X49.9060 Y0.3848
G01 X49.9337 Y0.4097
G01 X55.0137 Y5.4897
G01 X55.0386 Y5.5175
G01 X55.0579 Y5.5435
G01 X55.0758 Y5.5734
G01 X55.0916 Y5.6072
G01 X55.1024 Y5.6377
G01 X55.1104 Y5.6691
G01 X55.1160 Y5.7059
G01 X55.1177 Y5.7407
G01 X55.1177 Y20.9807
G01 X55.1160 Y21.0155
G01 X55.1113 Y21.0476
G01 X55.1017 Y21.0861
G01 X55.0907 Y21.1166
G01 X55.0758 Y21.1481
G01 X55.0579 Y21.1779
G01 X55.0386 Y21.2040
G01 X55.0137 Y21.2317
G01 X53.7420 Y22.5034
G01 X53.7179 Y22.5251
G01 X53.6900 Y22.5459
G01 X53.6601 Y22.5638
G01 X53.6308 Y22.5777
G01 X53.5934 Y22.5911
G01 X53.5620 Y22.5989
G01 X53.5263 Y22.6041
G01 X53.4928 Y22.6057
G01 X33.3198 Y22.6057
G01 X32.9797 Y22.9458
G00 Z2.0000
G00 X48.0578 Y31.1354
G01 F60.00
G01 Z0.0000
G01 F120.00
G01 X48.0578 Y25.4404
G01 X47.7170 Y25.0996
G01 X47.7108 Y25.0921
G01 X47.7077 Y25.0868
G01 X47.7057 Y25.0823
G01 X47.7033 Y25.0740
G01 X47.7024 Y25.0643
G01 X47.7026 Y24.5123
G01 X47.7042 Y24.5038
G01 X47.7066 Y24.4969
G01 X47.7108 Y24.4894
G01 X47.7161 Y24.4827
G01 X48.1039 Y24.0950
G01 X48.1114 Y24.0888
G01 X48.1189 Y24.0846
G01 X48.1283 Y24.0815
G01 X48.1331 Y24.0807
G01 X48.1392 Y24.0803
G01 X48.6912 Y24.0806
G01 X48.6996 Y24.0821
G01 X48.7077 Y24.0851
G01 X48.7141 Y24.0888
G01 X48.7208 Y24.0941
G01 X49.1085 Y24.4818
G01 X49.1140 Y24.4884
G01 X49.1189 Y24.4969
G01 X49.1217 Y24.5050
G01 X49.1231 Y24.5147
G01 X49.1232 Y25.0643
G01 X49.1224 Y25.0728
G01 X49.1198 Y25.0823
G01 X49.1154 Y25.0910
G01 X49.1118 Y25.0960
G01 X49.1085 Y25.0996
G01 X48.7677 Y25.4404
G01 X48.7677 Y31.1354
G01 X48.8076 Y31.1594
G01 X48.8617 Y31.1994
G01 X48.9144 Y31.2469
G01 X48.9622 Y31.2994
G01 X49.0030 Y31.3545
G01 X49.0396 Y31.4153
G01 X49.0694 Y31.4783
G01 X49.0929 Y31.5440
G01 X49.1101 Y31.6129
G01 X49.1201 Y31.6807
G01 X49.1235 Y31.7503
G01 X49.1235 Y33.0724
G01 X49.1201 Y33.1408
G01 X49.1098 Y33.2098
G01 X49.0929 Y33.2774
G01 X49.0703 Y33.3408
G01 X49.0384 Y33.4083
G01 X49.0037 Y33.4660
G01 X48.9622 Y33.5220
G01 X48.9153 Y33.5737
G01 X48.8636 Y33.6205
G01 X48.8076 Y33.6621
G01 X48.7499 Y33.6967
G01 X48.6825 Y33.7286
G01 X48.6191 Y33.7513
G01 X48.5514 Y33.7682
G01 X48.4824 Y33.7784
G01 X48.4128 Y33.7819
G01 X48.3431 Y33.7784
G01 X48.2741 Y33.7682
G01 X48.2064 Y33.7513
G01 X48.1408 Y33.7278
G01 X48.0777 Y33.6979
G01 X48.0179 Y33.6621
G01 X47.9619 Y33.6205
G01 X47.9102 Y33.5737
G01 X47.8634 Y33.5220
G01 X47.8218 Y33.4660
G01 X47.7859 Y33.4062
G01 X47.7561 Y33.3431
G01 X47.7326 Y33.2774
G01 X47.7157 Y33.2098
G01 X47.7054 Y33.1408
G01 X47.7020 Y33.0711
G01 X47.7020 Y31.7503
G01 X47.7054 Y31.6807
G01 X47.7155 Y31.6129
G01 X47.7326 Y31.5440
G01 X47.7561 Y31.4783
G01 X47.7859 Y31.4153
G01 X47.8225 Y31.3545
G01 X47.8634 Y31.2994
G01 X47.9111 Y31.2469
G01 X47.9638 Y31.1994
G01 X48.0179 Y31.1594
G01 X48.0578 Y31.1354
G00 Z2.0000
G00 X49.1085 Y10.5118
G01 F60.00
G01 Z0.0000
G01 F120.00
G01 X49.1140 Y10.5184
G01 X49.1189 Y10.5269
G01 X49.1219 Y10.5362
G01 X49.1231 Y10.5460
G01 X49.1232 Y11.0943
G01 X49.1224 Y11.1028
G01 X49.1198 Y11.1123
G01 X49.1154 Y11.1210
G01 X49.1126 Y11.1250
G01 X49.1085 Y11.1296
G01 X48.7217 Y11.5165
G01 X48.7151 Y11.5220
G01 X48.7066 Y11.5268
G01 X48.6973 Y11.5299
G01 X48.6924 Y11.5308
G01 X48.6863 Y11.5311
G01 X48.1392 Y11.5311
G01 X48.1295 Y11.5302
G01 X48.1201 Y11.5273
G01 X48.1114 Y11.5227
G01 X48.1039 Y11.5165
G01 X47.7170 Y11.1296
G01 X47.7115 Y11.1231
G01 X47.7066 Y11.1145
G01 X47.7045 Y11.1088
G01 X47.7033 Y11.1040
G01 X47.7024 Y11.0943
G01 X47.7024 Y10.5472
G01 X47.7031 Y10.5386
G01 X47.7057 Y10.5292
G01 X47.7083 Y10.5236
G01 X47.7108 Y10.5194
G01 X47.7170 Y10.5118
G01 X48.0578 Y10.1710
G01 X48.0578 Y3.9115
G01 X47.7511 Y3.9114
G01 X47.6827 Y3.9080
G01 X47.6149 Y3.8980
G01 X47.5460 Y3.8809
G01 X47.4804 Y3.8574
G01 X47.4173 Y3.8275
G01 X47.3565 Y3.7910
G01 X47.2996 Y3.7485
G01 X47.2498 Y3.7033
G01 X47.2046 Y3.6535
G01 X47.1614 Y3.5956
G01 X47.1255 Y3.5358
G01 X47.0948 Y3.4704
G01 X47.0722 Y3.4070
G01 X47.0558 Y3.3418
G01 X47.0450 Y3.2704
G01 X47.0416 Y3.2007
G01 X47.0450 Y3.1311
G01 X47.0553 Y3.0621
G01 X47.0722 Y2.9944
G01 X47.0948 Y2.9310
G01 X47.1268 Y2.8636
G01 X47.1614 Y2.8059
G01 X47.2030 Y2.7498
G01 X47.2498 Y2.6982
G01 X47.2996 Y2.6529
G01 X47.3596 Y2.6085
G01 X47.4173 Y2.5739
G01 X47.4804 Y2.5441
G01 X47.5460 Y2.5206
G01 X47.6137 Y2.5037
G01 X47.6827 Y2.4934
G01 X47.7524 Y2.4900
G01 X49.0732 Y2.4900
G01 X49.1453 Y2.4937
G01 X49.2118 Y2.5037
G01 X49.2771 Y2.5199
G01 X49.3474 Y2.5451
G01 X49.4082 Y2.5739
G01 X49.4659 Y2.6085
G01 X49.5240 Y2.6513
G01 X49.5774 Y2.6999
G01 X49.6226 Y2.7498
G01 X49.6627 Y2.8039
G01 X49.7000 Y2.8657
G01 X49.7307 Y2.9310
G01 X49.7533 Y2.9944
G01 X49.7702 Y3.0621
G01 X49.7806 Y3.1335
G01 X49.7839 Y3.2007
G01 X49.7806 Y3.2679
G01 X49.7702 Y3.3394
G01 X49.7525 Y3.4094
G01 X49.7298 Y3.4727
G01 X49.7011 Y3.5336
G01 X49.6641 Y3.5956
G01 X49.6210 Y3.6535
G01 X49.5757 Y3.7033
G01 X49.5250 Y3.7493
G01 X49.4680 Y3.7917
G01 X49.4060 Y3.8286
G01 X49.3451 Y3.8574
G01 X49.2818 Y3.8801
G01 X49.2130 Y3.8975
G01 X49.1428 Y3.9080
G01 X49.0744 Y3.9114
G01 X48.7677 Y3.9115
G01 X48.7677 Y10.1710
G01 X49.1085 Y10.5118
G00 Z2.0000
M05
G00 Z2.0000
G00 Z15.00


