(G-CODE GENERATED BY FLATCAM v8.994 - www.flatcam.org - Version Date: 2020/11/7)

(Name: drill_1_16.xln_cnc)
(Type: G-code from Geometry)
(Units: MM)

(Created on Thursday, 09 December 2021 at 15:00)

(This preprocessor is the default preprocessor used by FlatCAM.)
(It is made to work with MACH3 compatible motion controllers.)


(TOOLS DIAMETER: )
(Tool: 1 -> Dia: 0.813)
(Tool: 2 -> Dia: 0.914)

(FEEDRATE Z: )
(Tool: 1 -> Feedrate: 300.0)
(Tool: 2 -> Feedrate: 300.0)

(FEEDRATE RAPIDS: )
(Tool: 1 -> Feedrate Rapids: 1500)
(Tool: 2 -> Feedrate Rapids: 1500)

(Z_CUT: )
(Tool: 1 -> Z_Cut: -0.05)
(Tool: 2 -> Z_Cut: -0.05)

(Tools Offset: )
(Tool: 1 -> Offset Z: 0.0)
(Tool: 2 -> Offset Z: 0.0)

(Z_MOVE: )
(Tool: 1 -> Z_Move: 2.0)
(Tool: 2 -> Z_Move: 2.0)

(Z Toolchange: 15 mm)
(X,Y Toolchange: 0.0000, 0.0000 mm)
(Z Start: None mm)
(Z End: 0.5 mm)
(X,Y End: None mm)
(Steps per circle: 64)
(Preprocessor Excellon: default)

(X range:    0.9658 ...   56.4393  mm)
(Y range:    3.7085 ...   35.0015  mm)

(Spindle Speed: 0 RPM)
G21
G90
G94

G01 F300.00

M5
G00 Z15.0000
T1
G00 X0.0000 Y0.0000                
M6
(MSG, Change to Tool Dia = 0.8130 ||| Total drills for tool T1 = 26)
M0
G00 Z15.0000

G01 F300.00
M03
G00 X17.9328 Y6.6550
G01 Z-0.0500
G01 Z0
G00 Z2.0000
G00 X17.9328 Y4.1150
G01 Z-0.0500
G01 Z0
G00 Z2.0000
G00 X33.1728 Y6.6550
G01 Z-0.0500
G01 Z0
G00 Z2.0000
G00 X33.1728 Y4.1150
G01 Z-0.0500
G01 Z0
G00 Z2.0000
G00 X53.4928 Y4.1150
G01 Z-0.0500
G01 Z0
G00 Z2.0000
G00 X56.0328 Y4.1150
G01 Z-0.0500
G01 Z0
G00 Z2.0000
G00 X56.0328 Y13.0050
G01 Z-0.0500
G01 Z0
G00 Z2.0000
G00 X56.0328 Y18.0850
G01 Z-0.0500
G01 Z0
G00 Z2.0000
G00 X56.0328 Y20.6250
G01 Z-0.0500
G01 Z0
G00 Z2.0000
G00 X56.0328 Y25.7050
G01 Z-0.0500
G01 Z0
G00 Z2.0000
G00 X56.0328 Y34.5950
G01 Z-0.0500
G01 Z0
G00 Z2.0000
G00 X53.4928 Y34.5950
G01 Z-0.0500
G01 Z0
G00 Z2.0000
G00 X34.4428 Y25.7050
G01 Z-0.0500
G01 Z0
G00 Z2.0000
G00 X34.4428 Y23.1650
G01 Z-0.0500
G01 Z0
G00 Z2.0000
G00 X34.4428 Y20.6250
G01 Z-0.0500
G01 Z0
G00 Z2.0000
G00 X34.4428 Y18.0850
G01 Z-0.0500
G01 Z0
G00 Z2.0000
G00 X26.8228 Y18.0850
G01 Z-0.0500
G01 Z0
G00 Z2.0000
G00 X26.8228 Y20.6250
G01 Z-0.0500
G01 Z0
G00 Z2.0000
G00 X26.8228 Y23.1650
G01 Z-0.0500
G01 Z0
G00 Z2.0000
G00 X26.8228 Y25.7050
G01 Z-0.0500
G01 Z0
G00 Z2.0000
G00 X17.9328 Y34.5950
G01 Z-0.0500
G01 Z0
G00 Z2.0000
G00 X17.9328 Y29.5150
G01 Z-0.0500
G01 Z0
G00 Z2.0000
G00 X17.9328 Y23.1650
G01 Z-0.0500
G01 Z0
G00 Z2.0000
G00 X17.9328 Y18.0850
G01 Z-0.0500
G01 Z0
G00 Z2.0000
G00 X1.4228 Y23.1650
G01 Z-0.0500
G01 Z0
G00 Z2.0000
G00 X1.4228 Y20.6250
G01 Z-0.0500
G01 Z0
G00 Z2.0000
M05
G00 Z0.50


