(G-CODE GENERATED BY FLATCAM v8.994 - www.flatcam.org - Version Date: 2020/11/7)

(Name: drill_1_16.xln_cnc)
(Type: G-code from Geometry)
(Units: MM)

(Created on Friday, 10 December 2021 at 11:41)

(This preprocessor is the default preprocessor used by FlatCAM.)
(It is made to work with MACH3 compatible motion controllers.)


(TOOLS DIAMETER: )
(Tool: 1 -> Dia: 0.813)
(Tool: 2 -> Dia: 0.914)

(FEEDRATE Z: )
(Tool: 1 -> Feedrate: 300)
(Tool: 2 -> Feedrate: 300)

(FEEDRATE RAPIDS: )
(Tool: 1 -> Feedrate Rapids: 1500)
(Tool: 2 -> Feedrate Rapids: 1500)

(Z_CUT: )
(Tool: 1 -> Z_Cut: -0.05)
(Tool: 2 -> Z_Cut: -0.05)

(Tools Offset: )
(Tool: 1 -> Offset Z: 0.0)
(Tool: 2 -> Offset Z: 0.0)

(Z_MOVE: )
(Tool: 1 -> Z_Move: 2)
(Tool: 2 -> Z_Move: 2)

(Z Toolchange: 15 mm)
(X,Y Toolchange: 0.0000, 0.0000 mm)
(Z Start: None mm)
(Z End: 0.5 mm)
(X,Y End: None mm)
(Steps per circle: 64)
(Preprocessor Excellon: default)

(X range:    0.9658 ...   48.8193  mm)
(Y range:    0.2542 ...   32.8172  mm)

(Spindle Speed: 0 RPM)
G21
G90
G94

G01 F300.00

M5
G00 Z15.0000
T1
G00 X0.0000 Y0.0000                
M6
(MSG, Change to Tool Dia = 0.8130 ||| Total drills for tool T1 = 26)
M0
G00 Z15.0000

G01 F300.00
M03
G00 X48.4128 Y10.8207
G01 Z-0.0500
G01 Z0
G00 Z2.0000
G00 X48.4128 Y15.9007
G01 Z-0.0500
G01 Z0
G00 Z2.0000
G00 X48.4128 Y19.7107
G01 Z-0.0500
G01 Z0
G00 Z2.0000
G00 X48.4128 Y24.7907
G01 Z-0.0500
G01 Z0
G00 Z2.0000
G00 X48.4128 Y32.4107
G01 Z-0.0500
G01 Z0
G00 Z2.0000
G00 X45.8728 Y32.4107
G01 Z-0.0500
G01 Z0
G00 Z2.0000
G00 X31.9028 Y23.5207
G01 Z-0.0500
G01 Z0
G00 Z2.0000
G00 X31.9028 Y20.9807
G01 Z-0.0500
G01 Z0
G00 Z2.0000
G00 X31.9028 Y18.4407
G01 Z-0.0500
G01 Z0
G00 Z2.0000
G00 X31.9028 Y15.9007
G01 Z-0.0500
G01 Z0
G00 Z2.0000
G00 X24.2828 Y15.9007
G01 Z-0.0500
G01 Z0
G00 Z2.0000
G00 X24.2828 Y18.4407
G01 Z-0.0500
G01 Z0
G00 Z2.0000
G00 X24.2828 Y20.9807
G01 Z-0.0500
G01 Z0
G00 Z2.0000
G00 X24.2828 Y23.5207
G01 Z-0.0500
G01 Z0
G00 Z2.0000
G00 X11.5828 Y27.3307
G01 Z-0.0500
G01 Z0
G00 Z2.0000
G00 X11.5828 Y32.4107
G01 Z-0.0500
G01 Z0
G00 Z2.0000
G00 X1.4228 Y27.3307
G01 Z-0.0500
G01 Z0
G00 Z2.0000
G00 X1.4228 Y24.7907
G01 Z-0.0500
G01 Z0
G00 Z2.0000
G00 X11.5828 Y19.7107
G01 Z-0.0500
G01 Z0
G00 Z2.0000
G00 X11.5828 Y14.6307
G01 Z-0.0500
G01 Z0
G00 Z2.0000
G00 X17.9328 Y3.2007
G01 Z-0.0500
G01 Z0
G00 Z2.0000
G00 X17.9328 Y0.6607
G01 Z-0.0500
G01 Z0
G00 Z2.0000
G00 X30.6328 Y0.6607
G01 Z-0.0500
G01 Z0
G00 Z2.0000
G00 X30.6328 Y3.2007
G01 Z-0.0500
G01 Z0
G00 Z2.0000
G00 X48.4128 Y0.6607
G01 Z-0.0500
G01 Z0
G00 Z2.0000
G00 X48.4128 Y3.2007
G01 Z-0.0500
G01 Z0
G00 Z2.0000
M05
G00 Z0.50


